public/filters/fashion/FHF03.cube
#Created by: Adobe Photoshop Export Color Lookup Plugin
#Copyright: (C) Copyright 2022 Tim Martin and Presetpro.com
TITLE "Presetpro - Elite Chrome.jpg"
#LUT size
LUT_3D_SIZE 8
#data domain
#LUT data points
DOMAIN_MIN 0.000000 0.000000 0.000000
DOMAIN_MAX 0.903226 0.903226 0.903226
0.000000 0.000000 0.000000
0.040222 0.000000 0.003418
0.105988 0.010742 0.000000
0.248322 0.001526 0.001526
0.439606 0.003937 0.003937
0.624420 0.000000 0.001404
0.779907 0.003052 0.000000
0.931061 0.083252 0.000000
0.007324 0.036316 0.007843
0.044647 0.043640 0.003418
0.150665 0.040741 0.000000
0.305603 0.011261 0.000000
0.482239 0.001526 0.003937
0.646423 0.003937 0.001404
0.798370 0.003021 0.003418
0.939789 0.180145 0.003784
0.001007 0.143311 0.019623
0.000000 0.147247 0.022522
0.135468 0.176575 0.003937
0.353699 0.184937 0.000000
0.564209 0.187469 0.000000
0.706268 0.193787 0.000000
0.839722 0.236542 0.002014
0.961670 0.321198 0.000366
0.002411 0.343933 0.035919
0.001007 0.346863 0.045166
0.040863 0.355194 0.020233
0.325226 0.381653 0.000000
0.559662 0.391876 0.001526
0.748413 0.415558 0.001526
0.885773 0.445007 0.000000
0.988983 0.480957 0.001526
0.000000 0.547394 0.139557
0.001007 0.545502 0.145996
0.018066 0.543457 0.144501
0.308258 0.551300 0.095032
0.531708 0.564972 0.000000
0.718536 0.569397 0.000000
0.880707 0.597351 0.001770
0.999634 0.632782 0.000763
0.000000 0.704254 0.291107
0.005035 0.704254 0.289307
0.238098 0.700317 0.298950
0.391510 0.696411 0.296173
0.542084 0.700836 0.231018
0.709564 0.711853 0.084137
0.856934 0.704742 0.000000
0.986725 0.732697 0.000000
0.345001 0.823029 0.457428
0.373047 0.824799 0.457947
0.437195 0.819733 0.456299
0.524994 0.818481 0.467041
0.614319 0.816956 0.453400
0.726501 0.820374 0.397095
0.849213 0.820892 0.300568
0.970917 0.820892 0.138306
0.596985 0.909424 0.640869
0.609100 0.912598 0.637695
0.631866 0.914124 0.644775
0.681976 0.911072 0.644043
0.736389 0.909058 0.655029
0.793945 0.912964 0.630737
0.868439 0.916382 0.586456
0.956482 0.920441 0.514984
0.004425 0.000000 0.026062
0.038696 0.001007 0.031891
0.110413 0.007843 0.026062
0.253113 0.000519 0.038330
0.431763 0.000519 0.045532
0.623413 0.000000 0.033386
0.778381 0.003052 0.003418
0.920044 0.132446 0.000000
0.007324 0.040222 0.048065
0.045166 0.045166 0.046173
0.139893 0.052002 0.049072
0.294342 0.033386 0.054382
0.478333 0.002533 0.033142
0.642517 0.003418 0.019104
0.793549 0.056793 0.000519
0.935730 0.203796 0.003418
0.002899 0.156586 0.072601
0.007843 0.166840 0.079956
0.147736 0.193298 0.049591
0.365448 0.195801 0.017090
0.551941 0.197693 0.002411
0.701843 0.207581 0.000000
0.831116 0.250977 0.000000
0.955841 0.325989 0.001007
0.000519 0.362549 0.119293
0.000000 0.361542 0.118256
0.106110 0.364044 0.128021
0.342438 0.387573 0.019714
0.568024 0.400726 0.000000
0.752319 0.424774 0.002014
0.889069 0.447418 0.002411
0.988495 0.482208 0.000000
0.000519 0.557648 0.206573
0.004059 0.554718 0.209503
0.102448 0.552338 0.209259
0.327393 0.558136 0.180664
0.537903 0.569031 0.053406
0.722321 0.576874 0.002411
0.879822 0.603943 0.001526
0.998749 0.632660 0.003906
0.006439 0.706146 0.337250
0.085815 0.707520 0.337280
0.268463 0.705261 0.338013
0.412140 0.701721 0.342957
0.548523 0.708679 0.286163
0.712097 0.715515 0.181793
0.863525 0.709564 0.002533
0.986084 0.735107 0.003540
0.359528 0.825165 0.479828
0.393555 0.821381 0.486267
0.441498 0.830231 0.492859
0.530060 0.823273 0.499939
0.622162 0.819489 0.489197
0.726898 0.825958 0.431000
0.858185 0.823547 0.351959
0.968384 0.822266 0.214050
0.606567 0.916382 0.656555
0.613525 0.912964 0.656555
0.652252 0.912964 0.661224
0.690308 0.910553 0.655273
0.744843 0.911072 0.663269
0.799500 0.915009 0.656158
0.867950 0.913483 0.602020
0.959137 0.921326 0.538147
0.000000 0.000000 0.128632
0.027954 0.008362 0.129028
0.123596 0.007843 0.122711
0.267517 0.000519 0.137878
0.436829 0.000000 0.133575
0.595825 0.002533 0.156097
0.754333 0.075012 0.164948
0.905365 0.184448 0.164703
0.000000 0.040222 0.156586
0.031372 0.048065 0.158997
0.146729 0.068176 0.156982
0.297760 0.064758 0.160400
0.465027 0.047821 0.158875
0.622406 0.105621 0.169373
0.771545 0.150421 0.163422
0.914093 0.231750 0.162537
0.001007 0.182526 0.183533
0.002899 0.190887 0.188354
0.186462 0.209991 0.202148
0.353302 0.215820 0.192383
0.524109 0.220734 0.185455
0.678314 0.236053 0.176575
0.814178 0.274872 0.164062
0.937500 0.337616 0.158997
0.001007 0.382141 0.234009
0.001007 0.387085 0.242981
0.177704 0.396301 0.244904
0.371277 0.407684 0.215027
0.590912 0.421875 0.183563
0.750793 0.437561 0.165955
0.867035 0.447540 0.156586
0.975342 0.484741 0.149872
0.003784 0.570923 0.330688
0.004028 0.572296 0.330048
0.206329 0.572937 0.325867
0.373932 0.572296 0.319550
0.553314 0.581665 0.248444
0.736511 0.588501 0.189850
0.890442 0.613159 0.178741
0.999634 0.634308 0.165710
0.157349 0.718933 0.426178
0.215057 0.720306 0.427460
0.324097 0.714996 0.424805
0.448975 0.709167 0.431244
0.567627 0.714478 0.399872
0.717010 0.719940 0.323975
0.865540 0.716522 0.237305
0.986481 0.738403 0.245422
0.406586 0.829865 0.540558
0.426453 0.831268 0.539673
0.482117 0.827698 0.542694
0.558258 0.828217 0.552429
0.638733 0.821014 0.545471
0.735229 0.828857 0.505005
0.852264 0.823792 0.428070
0.968750 0.823914 0.329895
0.624054 0.916504 0.683624
0.634033 0.914368 0.683380
0.652496 0.914124 0.683990
0.701202 0.916504 0.689941
0.747772 0.914246 0.693115
0.805939 0.915497 0.679932
0.870453 0.914978 0.640228
0.954590 0.920044 0.584839
0.000000 0.002411 0.307129
0.004822 0.003937 0.310028
0.126617 0.002411 0.297882
0.309540 0.003937 0.301697
0.478699 0.001526 0.301819
0.631256 0.000000 0.303223
0.757874 0.026062 0.290558
0.888306 0.195343 0.306641
0.002411 0.044159 0.333191
0.000000 0.054382 0.333557
0.158508 0.069183 0.332672
0.330658 0.086884 0.320801
0.493988 0.095642 0.321808
0.637695 0.108154 0.309662
0.769775 0.141541 0.304230
0.885376 0.271240 0.327240
0.000000 0.167358 0.360626
0.001007 0.170776 0.363556
0.183929 0.207062 0.369476
0.368866 0.249695 0.361542
0.521454 0.258942 0.355560
0.659088 0.263489 0.334076
0.771027 0.319550 0.338623
0.906647 0.362030 0.342163
0.003937 0.400360 0.394928
0.004822 0.411621 0.402252
0.150757 0.422363 0.403259
0.413910 0.441101 0.414520
0.574341 0.441986 0.401611
0.704742 0.442871 0.380127
0.832642 0.458313 0.374664
0.947510 0.484497 0.353058
0.001526 0.589142 0.450470
0.036987 0.591034 0.448456
0.289185 0.593445 0.467407
0.440979 0.601776 0.467926
0.583923 0.603302 0.436157
0.752808 0.610138 0.414032
0.893372 0.625824 0.401764
0.981049 0.628235 0.389099
0.254181 0.728271 0.525879
0.307281 0.729156 0.537506
0.405823 0.727264 0.543060
0.495361 0.728790 0.543060
0.598114 0.722839 0.531433
0.732208 0.727783 0.470978
0.870209 0.729187 0.425934
0.987091 0.745361 0.433624
0.463776 0.833527 0.619354
0.493256 0.834534 0.626190
0.531067 0.833649 0.626312
0.592529 0.835052 0.625671
0.667694 0.826324 0.627716
0.750793 0.828735 0.601654
0.853760 0.830231 0.535217
0.967987 0.830231 0.463623
0.654510 0.918915 0.730927
0.655548 0.919922 0.728912
0.683105 0.915131 0.730042
0.715240 0.915375 0.726379
0.762573 0.915375 0.729919
0.815186 0.916901 0.728271
0.874390 0.918518 0.695129
0.952179 0.924347 0.643890
0.002014 0.000000 0.498444
0.000000 0.000000 0.496918
0.070923 0.002899 0.496399
0.352173 0.001526 0.493530
0.525879 0.021759 0.492615
0.666565 0.067047 0.481232
0.786591 0.150421 0.477936
0.910309 0.222656 0.474030
0.000000 0.044647 0.514008
0.003784 0.047180 0.511597
0.135071 0.056549 0.517670
0.379608 0.116241 0.517029
0.536652 0.147766 0.501343
0.669983 0.173462 0.489594
0.789124 0.221008 0.492889
0.910187 0.267578 0.484283
0.002899 0.165985 0.533722
0.001892 0.185455 0.541077
0.166962 0.210999 0.537659
0.407715 0.266388 0.541077
0.560303 0.303345 0.526764
0.682220 0.318390 0.516907
0.796478 0.338531 0.501343
0.907806 0.360657 0.491608
0.000000 0.377197 0.557648
0.001526 0.379211 0.558868
0.023499 0.385040 0.557617
0.419342 0.434662 0.565094
0.584595 0.478302 0.567017
0.697815 0.478302 0.552338
0.803925 0.468933 0.527771
0.910309 0.486115 0.508667
0.000000 0.598389 0.588501
0.002014 0.598389 0.585205
0.212250 0.608246 0.591553
0.439728 0.616455 0.595978
0.625702 0.631653 0.610138
0.738037 0.623810 0.595459
0.847443 0.615082 0.565247
0.946228 0.619507 0.541565
0.288452 0.741577 0.635681
0.333466 0.741577 0.630005
0.419220 0.743073 0.635834
0.535095 0.742096 0.643524
0.647461 0.748413 0.656433
0.749664 0.743469 0.617615
0.879059 0.745483 0.597748
0.989258 0.754852 0.598114
0.477051 0.839600 0.692474
0.494629 0.841492 0.696777
0.550537 0.838470 0.695526
0.633270 0.839966 0.710693
0.701477 0.837311 0.707428
0.766602 0.837952 0.694366
0.859344 0.836426 0.647583
0.966858 0.836182 0.602661
0.632507 0.922852 0.767242
0.651123 0.924225 0.768250
0.685760 0.922577 0.770050
0.737000 0.921204 0.778503
0.771301 0.920807 0.769135
0.823792 0.917908 0.780792
0.878326 0.922455 0.755859
0.952332 0.927887 0.712738
0.000000 0.000000 0.668701
0.000000 0.000519 0.671478
0.112061 0.002899 0.669708
0.396576 0.001526 0.675781
0.592316 0.136505 0.669098
0.721069 0.179901 0.658325
0.820770 0.231262 0.646179
0.923981 0.316650 0.650116
0.000000 0.031372 0.672363
0.001404 0.035278 0.668304
0.176453 0.042603 0.674377
0.418579 0.096619 0.669586
0.598267 0.217468 0.679077
0.725891 0.252899 0.663147
0.823914 0.290588 0.649353
0.926514 0.357117 0.647583
0.001404 0.181152 0.690948
0.000519 0.188721 0.685150
0.208984 0.214905 0.687805
0.443878 0.257660 0.686523
0.613678 0.351685 0.686676
0.734619 0.384186 0.675934
0.826813 0.398865 0.661102
0.923340 0.433136 0.654785
0.001007 0.351288 0.695251
0.001007 0.362030 0.702087
0.144501 0.386597 0.711060
0.444000 0.432739 0.705383
0.623810 0.497894 0.707794
0.736755 0.527374 0.696411
0.826813 0.526001 0.679840
0.926239 0.529663 0.666046
0.000000 0.583710 0.713104
0.000519 0.580170 0.718048
0.033478 0.579285 0.712097
0.374298 0.583191 0.712738
0.624695 0.620514 0.724884
0.750427 0.656189 0.723206
0.833160 0.641388 0.699585
0.923737 0.627228 0.679718
0.064697 0.742065 0.737000
0.194183 0.747009 0.731842
0.340149 0.746002 0.732697
0.497528 0.750275 0.738159
0.648468 0.755219 0.753571
0.784058 0.768372 0.756622
0.865540 0.752686 0.735992
0.952179 0.742462 0.702484
0.497162 0.848694 0.769897
0.526520 0.845795 0.776215
0.569519 0.852509 0.777740
0.643524 0.851105 0.775360
0.720428 0.852753 0.777985
0.802795 0.854797 0.787109
0.872223 0.846954 0.752686
0.966980 0.848694 0.737122
0.642365 0.929657 0.811890
0.659332 0.926758 0.814545
0.687683 0.925110 0.818970
0.724335 0.923584 0.817841
0.787598 0.924225 0.827332
0.843658 0.924347 0.835693
0.878052 0.926392 0.820892
0.945343 0.927887 0.787231
0.000000 0.003052 0.807343
0.005951 0.000000 0.809875
0.271332 0.004059 0.805206
0.485504 0.000000 0.808228
0.651520 0.152466 0.814178
0.785217 0.334747 0.809753
0.870972 0.353333 0.789520
0.945740 0.399261 0.773071
0.000000 0.004425 0.813538
0.008087 0.007446 0.809113
0.302460 0.025665 0.815704
0.490692 0.109406 0.809753
0.659363 0.234314 0.814697
0.783325 0.383820 0.811279
0.874512 0.402161 0.795197
0.949036 0.428467 0.775970
0.000000 0.192413 0.814056
0.057831 0.196686 0.814423
0.311188 0.224640 0.814789
0.507660 0.270447 0.818970
0.660248 0.361298 0.815186
0.782806 0.473877 0.811646
0.868958 0.485779 0.803284
0.940552 0.500427 0.777740
0.000885 0.353333 0.821533
0.004822 0.371918 0.816437
0.279449 0.392517 0.831268
0.485779 0.435669 0.821503
0.653290 0.497772 0.823792
0.782288 0.581787 0.819489
0.866150 0.589233 0.805817
0.939026 0.592163 0.792908
0.000000 0.537537 0.823792
0.001526 0.538177 0.823914
0.016022 0.548431 0.817108
0.405029 0.565613 0.828339
0.633667 0.611023 0.829620
0.788116 0.671631 0.832916
0.869080 0.691467 0.817841
0.935120 0.684265 0.806702
0.001770 0.727264 0.835175
0.004791 0.725250 0.834656
0.176971 0.725891 0.827209
0.405670 0.721344 0.834045
0.576874 0.718414 0.831635
0.772797 0.758270 0.836182
0.877930 0.784058 0.839600
0.933472 0.764954 0.819489
0.378113 0.844421 0.841766
0.410004 0.851746 0.844269
0.478180 0.845306 0.846436
0.584686 0.851379 0.850739
0.688568 0.850342 0.851105
0.796722 0.858704 0.859589
0.897156 0.865784 0.864014
0.948273 0.848694 0.833008
0.646179 0.936005 0.876282
0.660339 0.934479 0.874390
0.693604 0.934204 0.874390
0.741913 0.934723 0.878296
0.795593 0.930420 0.883240
0.851379 0.933594 0.885010
0.903748 0.935120 0.884125
0.952179 0.928772 0.862762
0.258972 0.000000 0.927887
0.325226 0.003418 0.925232
0.450714 0.003540 0.929413
0.590759 0.084503 0.925873
0.717163 0.247833 0.923981
0.831757 0.411530 0.917389
0.915131 0.534607 0.908539
0.983185 0.539276 0.900452
0.275513 0.015167 0.922577
0.346985 0.034393 0.922699
0.457428 0.087769 0.929047
0.592651 0.181152 0.924744
0.718048 0.306519 0.917542
0.830872 0.443268 0.922211
0.914856 0.562317 0.909058
0.979126 0.566742 0.900452
0.270477 0.219971 0.925751
0.332062 0.229218 0.925995
0.445648 0.261200 0.925354
0.585693 0.316132 0.926514
0.716919 0.409485 0.918274
0.827332 0.513977 0.916016
0.910706 0.617706 0.910828
0.972534 0.612274 0.898682
0.175476 0.381775 0.929169
0.268341 0.387085 0.931702
0.412140 0.408600 0.927002
0.563812 0.459686 0.931427
0.705261 0.521576 0.927887
0.818481 0.598480 0.912567
0.911072 0.679810 0.912598
0.970642 0.678436 0.901581
0.000000 0.529694 0.927002
0.002014 0.529175 0.917908
0.223755 0.529816 0.926147
0.495483 0.569519 0.926239
0.668060 0.623932 0.921204
0.810638 0.682373 0.921692
0.905273 0.741943 0.913483
0.963959 0.744476 0.909058
0.000366 0.697937 0.920563
0.002533 0.691986 0.930298
0.007446 0.686676 0.927399
0.349731 0.682220 0.923340
0.596344 0.701233 0.922455
0.789124 0.748779 0.922211
0.896790 0.800262 0.925385
0.957489 0.813538 0.915497
0.186371 0.838959 0.932587
0.250244 0.840118 0.930176
0.359650 0.834045 0.926880
0.481842 0.836060 0.931549
0.611145 0.828217 0.929291
0.731964 0.826447 0.930298
0.891083 0.855804 0.929535
0.952942 0.880585 0.927643
0.562439 0.932587 0.940033
0.574707 0.932434 0.936127
0.605438 0.934723 0.933594
0.666412 0.934082 0.934082
0.739410 0.932953 0.938904
0.821503 0.935120 0.944733
0.895386 0.943085 0.943848
0.964325 0.948639 0.951813
