public/filters/fashion/FHF05.cube
TITLE "Developed by Cinegrading"
LUT_3D_SIZE 5
0 0 0.00820935
0.247959 0.0231022 0.0106203
0.483787 0.0484169 0.00531014
0.704677 0.0720073 0.00280766
0.915801 0.103838 0.00643931
0 0.162203 0.0443122
0.186221 0.184268 0.0289464
0.491341 0.206195 0.00427253
0.73875 0.225193 0.00138857
0.936126 0.246372 0.00291447
0.00181582 0.373846 0.0916609
0.146563 0.409155 0.0983139
0.485191 0.400168 0.0342412
0.76434 0.43917 0.0181125
0.950881 0.452262 0.0180667
0.0150454 0.608637 0.144869
0.156405 0.637858 0.145998
0.523919 0.691386 0.125048
0.781949 0.644236 0.0691539
0.962417 0.660792 0.0658427
0.0252384 0.81387 0.180362
0.175875 0.83241 0.165133
0.478523 0.861006 0.148882
0.77734 0.882689 0.126833
0.9673 0.840574 0.0988632
0 0.0271153 0.215564
0.258549 0.0222171 0.190066
0.492546 0.030457 0.170825
0.693141 0.0353094 0.143786
0.890593 0.0577401 0.137728
0.000534066 0.204929 0.243351
0.150713 0.218753 0.23357
0.473884 0.232136 0.177295
0.741039 0.249638 0.146181
0.938521 0.268376 0.128161
0.00653086 0.416068 0.281346
0.0965286 0.415808 0.270634
0.474632 0.416052 0.190509
0.775158 0.425986 0.131624
0.953933 0.424155 0.123217
0.0197604 0.638911 0.314611
0.124147 0.64593 0.303197
0.470817 0.68777 0.265232
0.792889 0.658045 0.185916
0.969329 0.678691 0.182589
0.0274205 0.828107 0.330434
0.131884 0.832441 0.317143
0.427893 0.859709 0.292638
0.75819 0.88864 0.246998
0.970489 0.85536 0.214374
0.000457771 0.0881056 0.408225
0.182193 0.0222934 0.357137
0.489204 0.0443427 0.345235
0.703105 0.0542458 0.333837
0.896666 0.0618906 0.325277
0.00337224 0.261372 0.431662
0.0903639 0.258518 0.439292
0.469978 0.212757 0.351644
0.726009 0.212543 0.318898
0.915145 0.223941 0.283635
0.00857557 0.425788 0.452613
0.0944533 0.446281 0.469245
0.416373 0.463722 0.434073
0.751644 0.470466 0.36643
0.951324 0.463661 0.325353
0.0230106 0.657771 0.4981
0.116472 0.671443 0.496437
0.3308 0.680888 0.476432
0.781018 0.691096 0.400473
0.970855 0.688899 0.359838
0.0302281 0.845258 0.514656
0.12639 0.846189 0.494041
0.349477 0.859205 0.474617
0.730327 0.897887 0.431571
0.971801 0.875624 0.368292
0.00572213 0.130861 0.578439
0.178622 0.0317388 0.513039
0.408591 0.0447547 0.504112
0.705913 0.0652018 0.498756
0.910445 0.088716 0.495216
0.00825513 0.31516 0.604242
0.0872358 0.311177 0.618814
0.353552 0.207813 0.537102
0.731701 0.218112 0.500481
0.927108 0.2336 0.486809
0.0129091 0.466102 0.621515
0.0975052 0.487831 0.640513
0.29305 0.4757 0.633555
0.741756 0.437888 0.525841
0.93785 0.427131 0.493019
0.0242313 0.658564 0.654902
0.122087 0.682231 0.670756
0.290578 0.696193 0.676661
0.736904 0.741009 0.641886
0.968246 0.723156 0.593027
0.0348669 0.864897 0.685176
0.133196 0.867414 0.678584
0.273228 0.86421 0.6598
0.661463 0.898482 0.622995
0.972122 0.907179 0.580713
0.00762951 0.179507 0.727657
0.196521 0.0443732 0.648585
0.396689 0.0493324 0.638636
0.668681 0.0710613 0.638361
0.914748 0.0987869 0.642359
0.0121462 0.354849 0.749722
0.0899519 0.3346 0.757107
0.339223 0.209171 0.674113
0.658244 0.214878 0.643671
0.930663 0.241642 0.641947
0.0179751 0.509789 0.76939
0.102541 0.516686 0.777523
0.26331 0.473671 0.762478
0.645487 0.403235 0.677073
0.944366 0.430365 0.652857
0.0255589 0.67245 0.791241
0.1178 0.680766 0.797726
0.251438 0.684077 0.801221
0.630961 0.702541 0.786923
0.963256 0.707927 0.740505
0.035935 0.859525 0.818952
0.136828 0.867277 0.823087
0.267552 0.871611 0.823743
0.452476 0.888823 0.832761
0.968154 0.950301 0.80708
