public/filters/fashion/FHF05.cube
TITLE "Developed by Cinegrading"
LUT_3D_SIZE 33
0 0 0.00820935
0.0145876 0.00453193 0.0117494
0.0291905 0.00906386 0.0153048
0.0636606 0.0124514 0.0174411
0.101198 0.015671 0.0193637
0.140383 0.0175479 0.0174563
0.180179 0.0189212 0.0141604
0.215549 0.0208286 0.0120089
0.247959 0.0231022 0.0106203
0.279026 0.0258488 0.00959792
0.308568 0.0291752 0.00895705
0.337987 0.0324559 0.00833143
0.367147 0.0356603 0.00772107
0.396292 0.0388495 0.0071107
0.425406 0.0419928 0.00648508
0.454536 0.0451514 0.00585946
0.483787 0.0484169 0.00531014
0.513054 0.0516823 0.00476081
0.541207 0.0545968 0.00430304
0.569284 0.0574807 0.00384527
0.596689 0.0602579 0.00355535
0.623926 0.0630198 0.00329595
0.650965 0.0659495 0.00308232
0.677913 0.0689403 0.00288396
0.704677 0.0720073 0.00280766
0.731273 0.0751049 0.00282292
0.758022 0.0785229 0.00291447
0.785031 0.0823987 0.00308232
0.811826 0.0862898 0.00331121
0.838026 0.0902571 0.00369268
0.864179 0.094316 0.00418097
0.889998 0.0990768 0.00531014
0.915801 0.103838 0.00643931
0 0.0121004 0.0107424
0.00827039 0.015259 0.0118257
0.0228733 0.0197757 0.0153811
0.0488136 0.025742 0.0177157
0.0850385 0.0293584 0.0196689
0.12639 0.0322118 0.0182345
0.166964 0.0339513 0.0151064
0.205081 0.0357366 0.0124666
0.239338 0.0379187 0.0107729
0.271809 0.0408789 0.00959792
0.302937 0.0444038 0.0087892
0.333227 0.0479438 0.0081178
0.364157 0.0516823 0.00741588
0.393805 0.055024 0.00679026
0.424918 0.0588083 0.00613413
0.454185 0.0620127 0.00550851
0.485649 0.0659495 0.00491341
0.514916 0.0692149 0.00436408
0.544762 0.0727398 0.00393683
0.572946 0.0756695 0.00347906
0.601144 0.0787518 0.00325017
0.62858 0.0815747 0.00300603
0.65597 0.0845502 0.00280766
0.683101 0.0875715 0.00262455
0.709926 0.0906233 0.00257877
0.736568 0.0937362 0.00262455
0.763256 0.0969558 0.00268559
0.790143 0.100557 0.00282292
0.816922 0.104311 0.00299077
0.843061 0.107881 0.00318914
0.86894 0.111788 0.00361639
0.892989 0.115511 0.00433356
0.918791 0.120272 0.00546273
0 0.0242008 0.0132906
0.00827039 0.0273594 0.0143587
0.0165408 0.030518 0.0154421
0.0424811 0.0364843 0.0177768
0.0701762 0.0426642 0.0199435
0.110216 0.0459144 0.0185397
0.152956 0.0486305 0.0158694
0.191867 0.050782 0.0134127
0.228885 0.052842 0.0112459
0.263188 0.0557107 0.00975052
0.295705 0.0594339 0.0087892
0.327596 0.0631876 0.00794995
0.359396 0.0671855 0.00720226
0.390814 0.0710613 0.00648508
0.422415 0.0750134 0.00581369
0.453696 0.0788434 0.00514229
0.485313 0.082826 0.00454719
0.516762 0.0867628 0.00396735
0.546609 0.0902876 0.00354009
0.576501 0.0938125 0.00311284
0.604807 0.0969406 0.00288396
0.633036 0.100069 0.00270085
0.660624 0.103105 0.002533
0.688106 0.106188 0.00236515
0.715114 0.10927 0.00231937
0.741817 0.112367 0.00241093
0.768551 0.115602 0.00248722
0.795377 0.119005 0.00260929
0.822034 0.122484 0.00273136
0.848157 0.125902 0.0028687
0.873976 0.129412 0.00311284
0.897749 0.132982 0.00376898
0.921782 0.136721 0.00448615
0 0.0432746 0.0176699
0.00700389 0.0471504 0.0206607
0.015259 0.0502937 0.0217441
0.0336309 0.054612 0.0206912
0.061326 0.0607919 0.0228428
0.0988937 0.0645914 0.0201572
0.141436 0.0673381 0.017258
0.183246 0.0692302 0.0141604
0.221378 0.071107 0.0116732
0.257618 0.0735332 0.00994888
0.291279 0.0769055 0.00889601
0.324208 0.0805982 0.00799573
0.357061 0.0843977 0.00720226
0.389166 0.0883497 0.00642405
0.421897 0.0921645 0.00564584
0.45362 0.0961166 0.00497444
0.486473 0.100099 0.00433356
0.518074 0.104097 0.00373846
0.549035 0.107652 0.00331121
0.578927 0.111192 0.00289921
0.608148 0.114443 0.00259403
0.636423 0.117571 0.00241093
0.66421 0.120653 0.00231937
0.691707 0.12372 0.00218204
0.718853 0.126802 0.00209049
0.745602 0.1299 0.00215152
0.772229 0.13312 0.00224308
0.798886 0.136522 0.00236515
0.825559 0.139925 0.00251774
0.851759 0.143343 0.00274662
0.87744 0.1467 0.00291447
0.900542 0.149828 0.00334173
0.924315 0.153399 0.00399786
0 0.0634165 0.0223545
0.00680552 0.0673991 0.0256352
0.0137942 0.0712596 0.0286107
0.032166 0.0755779 0.0275578
0.0520943 0.0800641 0.0261845
0.0896773 0.0838636 0.0234989
0.130846 0.0867781 0.019028
0.172442 0.0887007 0.0157015
0.213626 0.0900587 0.0123445
0.250996 0.0922866 0.0102998
0.286366 0.09514 0.00910964
0.320439 0.098497 0.00808728
0.354192 0.102129 0.00726329
0.387335 0.105867 0.00645457
0.42063 0.109636 0.00561532
0.453483 0.113451 0.00485237
0.486641 0.117449 0.00419623
0.519493 0.121431 0.00354009
0.55053 0.125002 0.00311284
0.581445 0.128542 0.00270085
0.610666 0.131792 0.00241093
0.639704 0.134966 0.00213626
0.667552 0.138048 0.00204471
0.695125 0.1411 0.00198367
0.722286 0.144167 0.00192264
0.749126 0.147265 0.00192264
0.775799 0.150469 0.00198367
0.802289 0.153872 0.00210575
0.828809 0.157275 0.00227359
0.855055 0.160678 0.00256352
0.880812 0.164034 0.00282292
0.90367 0.166995 0.00315862
0.926757 0.170123 0.00358587
0 0.0868849 0.0276646
0.0065156 0.0901961 0.0308995
0.0133211 0.0941787 0.0341802
0.0284733 0.101198 0.0360113
0.0484016 0.105684 0.0346227
0.0808881 0.106462 0.0285039
0.122057 0.109377 0.024033
0.164401 0.110552 0.0181277
0.205844 0.111727 0.0142824
0.245426 0.114183 0.0112612
0.281453 0.117266 0.00967422
0.31722 0.120058 0.00840772
0.352102 0.123308 0.00733959
0.38616 0.126757 0.00650034
0.420523 0.129961 0.00561532
0.453925 0.133684 0.00480659
0.488228 0.13724 0.00411994
0.521385 0.141238 0.0034638
0.553414 0.144518 0.00292973
0.584405 0.148058 0.00250248
0.614221 0.151003 0.00224308
0.643259 0.154177 0.00198367
0.671473 0.156939 0.00184634
0.699062 0.15996 0.00180056
0.726085 0.162829 0.00183108
0.752865 0.165835 0.00184634
0.779461 0.168933 0.00184634
0.805859 0.172244 0.0019379
0.832212 0.175616 0.002121
0.85832 0.178988 0.0024567
0.884001 0.1823 0.00273136
0.90634 0.185153 0.00299077
0.929183 0.188113 0.00334173
0 0.111559 0.0332036
0.00640879 0.114641 0.0364385
0.0129244 0.117952 0.0396887
0.0275273 0.125429 0.0419776
0.0438849 0.132998 0.0436408
0.0763714 0.133776 0.0375067
0.11342 0.133196 0.0296483
0.155764 0.134386 0.0237278
0.198886 0.134401 0.016846
0.238743 0.136675 0.0133364
0.276509 0.140383 0.0106966
0.312917 0.143404 0.0090486
0.349477 0.14609 0.00764477
0.384665 0.149157 0.00657664
0.419974 0.151858 0.0056611
0.454444 0.155032 0.00479133
0.489311 0.158373 0.00408942
0.523598 0.161944 0.00341802
0.555871 0.165148 0.00285344
0.587823 0.168383 0.00231937
0.61767 0.171283 0.00205997
0.647196 0.174075 0.00184634
0.67541 0.176837 0.00170901
0.703197 0.179385 0.00164797
0.730236 0.182223 0.00167849
0.756771 0.184924 0.00177005
0.783307 0.187945 0.00180056
0.809522 0.191073 0.00183108
0.835782 0.194354 0.00198367
0.861738 0.197665 0.00236515
0.887282 0.200961 0.00267033
0.90927 0.203723 0.00288396
0.931594 0.206561 0.00314336
0 0.136721 0.0387579
0.00636301 0.139223 0.0415351
0.0127871 0.14229 0.04477
0.0252384 0.149096 0.0481422
0.0410468 0.157122 0.0502785
0.070985 0.163485 0.0472114
0.108049 0.162921 0.039353
0.148867 0.15903 0.0296788
0.191989 0.159045 0.0227817
0.233509 0.159533 0.0164187
0.271519 0.162875 0.0133669
0.309285 0.166888 0.0106508
0.346166 0.170092 0.00888075
0.38291 0.1729 0.00733959
0.419074 0.17583 0.00593576
0.454505 0.178531 0.00500496
0.4907 0.181506 0.0040589
0.525567 0.184848 0.00337224
0.558816 0.187457 0.00277714
0.591012 0.190616 0.00222782
0.621561 0.193072 0.00195315
0.651133 0.195819 0.00173953
0.679561 0.198123 0.00155642
0.707347 0.200671 0.00148013
0.734432 0.20296 0.00155642
0.760967 0.205631 0.00167849
0.787228 0.208286 0.00178531
0.813367 0.211292 0.00184634
0.839399 0.214389 0.0019379
0.865232 0.217609 0.00228885
0.890501 0.220798 0.00262455
0.911925 0.223346 0.00280766
0.933898 0.226108 0.00300603
0 0.162203 0.0443122
0.00633249 0.164309 0.0467994
0.0127108 0.166812 0.0495766
0.0242313 0.173358 0.0534371
0.0374762 0.180697 0.0569162
0.0670939 0.188098 0.0543069
0.102068 0.194232 0.0495155
0.142885 0.190356 0.0398413
0.186221 0.184268 0.0289464
0.227741 0.184741 0.0225834
0.26743 0.185733 0.0168307
0.30544 0.189395 0.0137026
0.343191 0.194018 0.0108644
0.38024 0.197345 0.00894179
0.417685 0.200626 0.0068513
0.453986 0.203571 0.00543221
0.491341 0.206195 0.00427253
0.527535 0.209155 0.00332647
0.561288 0.21146 0.00271611
0.594461 0.213993 0.00213626
0.625162 0.216327 0.00187686
0.65536 0.21857 0.00167849
0.683787 0.220844 0.00148013
0.711666 0.222919 0.00131228
0.73875 0.225193 0.00138857
0.765209 0.227237 0.0016022
0.791455 0.229847 0.00172427
0.817273 0.232425 0.0018616
0.843229 0.235416 0.00198367
0.868788 0.238437 0.00227359
0.893919 0.24152 0.00259403
0.914702 0.243824 0.00274662
0.936126 0.246372 0.00291447
0 0.187655 0.0496529
0.00648508 0.189548 0.0520333
0.0128176 0.191653 0.0545205
0.0236515 0.197467 0.05832
0.0359655 0.204562 0.0622721
0.0618753 0.212329 0.0614633
0.0965286 0.219486 0.057145
0.138994 0.222568 0.0498054
0.182315 0.21648 0.0389105
0.222889 0.209812 0.0285954
0.262562 0.210803 0.0228275
0.302144 0.211963 0.0172427
0.340108 0.216175 0.0140841
0.377951 0.220798 0.0112001
0.41561 0.224445 0.00883497
0.453147 0.227878 0.00672923
0.491081 0.231617 0.00515755
0.528435 0.234241 0.00399786
0.563287 0.236851 0.00294499
0.596948 0.239078 0.00234989
0.628611 0.240848 0.0018616
0.658961 0.242969 0.00166323
0.687861 0.244526 0.00148013
0.71574 0.246555 0.00129702
0.742855 0.248234 0.00131228
0.769314 0.250278 0.0015259
0.795361 0.252216 0.00167849
0.821149 0.254734 0.00180056
0.846784 0.257267 0.00198367
0.872236 0.260182 0.00228885
0.897047 0.263066 0.00257877
0.917525 0.265232 0.00276188
0.938323 0.267536 0.00289921
0 0.213077 0.0547494
0.00665293 0.214725 0.0570077
0.013138 0.216617 0.0593881
0.0233768 0.221897 0.0632334
0.0348211 0.228199 0.0672465
0.0591287 0.236316 0.0671702
0.0894026 0.24445 0.0648966
0.132616 0.248631 0.0578317
0.180789 0.249729 0.048661
0.221347 0.243046 0.0383459
0.258747 0.235706 0.0286564
0.298329 0.236866 0.0230716
0.337667 0.238346 0.0178225
0.375738 0.242557 0.0146181
0.413977 0.247166 0.0115206
0.451728 0.25095 0.00915541
0.490532 0.256382 0.00695811
0.528466 0.260121 0.00538643
0.564263 0.263066 0.00393683
0.598993 0.26569 0.00288396
0.631128 0.267201 0.00224308
0.662409 0.268788 0.00173953
0.691402 0.27013 0.00154116
0.719646 0.27129 0.00135805
0.746746 0.272908 0.00137331
0.77319 0.274235 0.00155642
0.799222 0.276158 0.00170901
0.824643 0.277943 0.00177005
0.850248 0.280415 0.00195315
0.875349 0.282841 0.00225834
0.900069 0.285603 0.00254826
0.919966 0.287556 0.0027924
0.940459 0.289723 0.00297551
0 0.238712 0.0601053
0.00691234 0.240314 0.0623484
0.0135653 0.241962 0.0645914
0.023743 0.246952 0.0682841
0.0345922 0.25272 0.072343
0.056672 0.260243 0.0728618
0.085359 0.268727 0.0713207
0.125978 0.274632 0.0659648
0.174899 0.276829 0.0570687
0.220981 0.2766 0.048127
0.258381 0.269261 0.0384527
0.294789 0.261891 0.0289921
0.334142 0.263371 0.023743
0.373602 0.264866 0.0184939
0.412055 0.269093 0.0151217
0.450431 0.273762 0.0120089
0.489601 0.279179 0.00952163
0.528405 0.284596 0.00733959
0.564584 0.288914 0.00575265
0.600259 0.291875 0.00428779
0.633188 0.294392 0.00329595
0.664942 0.29572 0.00263981
0.694743 0.296941 0.00213626
0.723064 0.297887 0.0019379
0.750469 0.298772 0.00178531
0.776898 0.300023 0.00196841
0.802869 0.301091 0.00210575
0.828275 0.302861 0.00216678
0.853391 0.304509 0.00227359
0.878431 0.306859 0.00257877
0.90277 0.309071 0.00288396
0.92253 0.310811 0.00311284
0.942428 0.312749 0.00335698
0 0.26479 0.0659648
0.0074464 0.2663 0.0681621
0.014374 0.267903 0.0703899
0.0243687 0.272511 0.0738842
0.0350652 0.277958 0.07776
0.0549325 0.285191 0.0789654
0.080293 0.293248 0.0784466
0.12076 0.300099 0.0735485
0.169253 0.304921 0.0659495
0.216342 0.305501 0.057145
0.260334 0.303441 0.0482948
0.296742 0.296071 0.0388495
0.331212 0.288655 0.0298466
0.370657 0.290166 0.0245975
0.410513 0.291752 0.0193484
0.449104 0.296025 0.0159457
0.489296 0.301411 0.0126802
0.52845 0.306813 0.010193
0.565164 0.313252 0.00849927
0.601205 0.317632 0.00695811
0.634684 0.32134 0.00570687
0.667063 0.324025 0.00476081
0.697185 0.325414 0.00407416
0.726177 0.32668 0.00355535
0.753628 0.327413 0.00329595
0.78027 0.328115 0.00309758
0.80621 0.329091 0.00323491
0.831449 0.329732 0.00329595
0.85655 0.33138 0.00340276
0.880796 0.332662 0.00364691
0.905074 0.334813 0.00393683
0.924331 0.335714 0.00415045
0.944106 0.337438 0.0043946
7.62951e-05 0.291035 0.0719005
0.00770581 0.292607 0.0741436
0.0151522 0.294118 0.0763409
0.0252689 0.298573 0.0796826
0.0357824 0.303639 0.08336
0.0546578 0.31043 0.084535
0.0778058 0.318196 0.0847028
0.115465 0.324865 0.0809339
0.163806 0.330632 0.0738079
0.211551 0.334691 0.066453
0.25655 0.33344 0.0577401
0.299046 0.330343 0.0487373
0.333501 0.322927 0.0397345
0.367926 0.315541 0.0307164
0.407782 0.317143 0.0254673
0.447776 0.318791 0.0202029
0.488197 0.323766 0.0166323
0.528374 0.329137 0.0133669
0.565377 0.335363 0.011429
0.601938 0.341878 0.00975052
0.635752 0.346838 0.00851453
0.668681 0.350729 0.00730907
0.699351 0.35375 0.00657664
0.728664 0.355169 0.00587472
0.756649 0.356542 0.00540169
0.783337 0.357092 0.00509651
0.809461 0.357687 0.00488289
0.834669 0.358251 0.00494392
0.85951 0.358816 0.00497444
0.883772 0.360113 0.00521859
0.907286 0.361196 0.00540169
0.926497 0.362005 0.00560006
0.945769 0.362905 0.00581369
0.00047303 0.317952 0.0782177
0.00880446 0.319768 0.0806134
0.016434 0.32134 0.0828565
0.0265354 0.325338 0.0857099
0.0370642 0.330175 0.0891432
0.0535439 0.336339 0.090547
0.0746014 0.343542 0.0908827
0.111055 0.350362 0.0880293
0.157595 0.35639 0.0822766
0.206622 0.362554 0.0755779
0.255161 0.367071 0.0687114
0.298329 0.364096 0.0595865
0.337148 0.357565 0.0497749
0.371588 0.350195 0.0407568
0.405905 0.342916 0.0317235
0.445899 0.344564 0.0264591
0.4878 0.346899 0.0209354
0.528206 0.351873 0.0173648
0.565957 0.357351 0.0148165
0.602792 0.363577 0.0129244
0.637079 0.370199 0.0118105
0.670329 0.375189 0.0106966
0.70132 0.380041 0.0102541
0.731014 0.383536 0.00988785
0.759106 0.385611 0.00944533
0.786023 0.387549 0.00918593
0.812161 0.38819 0.00889601
0.837446 0.388907 0.00868238
0.862242 0.38941 0.00869764
0.885969 0.389838 0.00857557
0.909483 0.390921 0.00875868
0.928161 0.390646 0.00859083
0.947372 0.39147 0.0087892
0.000915541 0.344991 0.0845808
0.00927749 0.346807 0.0869764
0.0176089 0.348623 0.0893721
0.0278477 0.352636 0.092195
0.0383764 0.357015 0.09514
0.0546731 0.362905 0.0963607
0.0733349 0.369467 0.0969406
0.107637 0.375814 0.0944076
0.152972 0.38201 0.0895399
0.200549 0.388449 0.0840162
0.25037 0.395056 0.077821
0.297292 0.398184 0.0707713
0.336797 0.391806 0.0608377
0.375311 0.384924 0.0508583
0.409628 0.377646 0.0418097
0.444099 0.370443 0.0327459
0.485985 0.372778 0.0272374
0.527886 0.375128 0.0217136
0.565866 0.380194 0.0188754
0.603433 0.385672 0.0163882
0.637995 0.391959 0.0150301
0.671717 0.398596 0.0140536
0.703029 0.40444 0.0136873
0.733043 0.409766 0.013611
0.761517 0.413901 0.0135348
0.78854 0.416541 0.0133059
0.814893 0.418631 0.0131228
0.840192 0.419394 0.0128328
0.865019 0.420157 0.012604
0.888701 0.420508 0.0124666
0.91165 0.420798 0.012314
0.930327 0.420523 0.0121309
0.949004 0.420264 0.0119631
0.00181582 0.373846 0.0916609
0.0107729 0.375662 0.0940566
0.0191348 0.377478 0.096437
0.029633 0.381033 0.0985885
0.0402228 0.385306 0.101366
0.0545663 0.390249 0.102785
0.0722515 0.396338 0.103456
0.103716 0.402838 0.102113
0.146563 0.409155 0.0983139
0.195056 0.415869 0.092546
0.246265 0.422904 0.0859846
0.295338 0.42945 0.0804913
0.340795 0.432456 0.0748302
0.3794 0.424964 0.0644388
0.414298 0.413687 0.0526436
0.448768 0.40647 0.0435798
0.485191 0.400168 0.0342412
0.527077 0.402502 0.0287327
0.566552 0.405005 0.0239872
0.604364 0.410086 0.0211948
0.639506 0.414969 0.0191348
0.673457 0.421103 0.0178988
0.705196 0.427604 0.0176394
0.735515 0.433387 0.0176394
0.76434 0.43917 0.0181125
0.791775 0.443702 0.0185245
0.818219 0.446815 0.018616
0.843687 0.449592 0.0189059
0.868391 0.45066 0.0187381
0.891569 0.452247 0.0188296
0.914458 0.452552 0.0186618
0.932204 0.452537 0.0182345
0.950881 0.452262 0.0180667
0.00271611 0.402701 0.0987411
0.0116732 0.404517 0.101122
0.0206302 0.406332 0.103517
0.0311742 0.409888 0.105653
0.0420081 0.413703 0.107759
0.0564126 0.41854 0.10901
0.0721447 0.423697 0.109865
0.102632 0.429725 0.108629
0.142641 0.436179 0.106035
0.188647 0.443015 0.10132
0.240772 0.45034 0.0945144
0.291234 0.457298 0.0886397
0.338842 0.463722 0.0845502
0.383383 0.465629 0.0784314
0.418387 0.453727 0.0662242
0.453437 0.442512 0.0544137
0.48986 0.43621 0.0450752
0.526284 0.429892 0.0357366
0.565759 0.432395 0.0309911
0.605051 0.434913 0.0263066
0.640436 0.439384 0.0239414
0.674983 0.444099 0.0219883
0.706935 0.450111 0.0214847
0.737697 0.456565 0.0216068
0.766812 0.462791 0.0221561
0.794598 0.468971 0.0231022
0.821439 0.473976 0.0238193
0.847013 0.477775 0.0243992
0.871885 0.480858 0.0247959
0.894942 0.48275 0.0249638
0.917327 0.484291 0.0250248
0.935012 0.484291 0.0245823
0.952758 0.484276 0.024155
0.00430304 0.432822 0.106203
0.0135195 0.434623 0.108537
0.0224765 0.436423 0.110918
0.0336461 0.43978 0.112551
0.0445106 0.443595 0.114611
0.0587778 0.447776 0.115404
0.074464 0.452766 0.116152
0.10103 0.458564 0.115984
0.138964 0.464942 0.113954
0.185595 0.471946 0.109712
0.238682 0.479423 0.103227
0.289509 0.487053 0.097673
0.337484 0.494575 0.0941939
0.384695 0.500374 0.0898604
0.427482 0.499596 0.0827497
0.462287 0.487419 0.0704051
0.494789 0.472679 0.0568093
0.531197 0.466361 0.0474708
0.56643 0.461189 0.0389868
0.605737 0.463706 0.034287
0.642344 0.466163 0.030518
0.677073 0.470588 0.0283513
0.709392 0.475029 0.0271458
0.740261 0.480919 0.0270085
0.769589 0.486748 0.0274052
0.797482 0.492592 0.0282292
0.824353 0.49836 0.029221
0.849897 0.502876 0.0300603
0.874784 0.506828 0.0307927
0.897826 0.510369 0.0316014
0.920027 0.512337 0.0317845
0.936812 0.51426 0.0320439
0.954498 0.51426 0.0316014
0.00593576 0.46302 0.113695
0.0151675 0.46482 0.11603
0.0243839 0.466621 0.118364
0.0355535 0.469978 0.119982
0.0470588 0.473579 0.121492
0.0613565 0.477745 0.12224
0.0768749 0.482063 0.12256
0.10338 0.487694 0.122271
0.137179 0.493904 0.121416
0.181735 0.500847 0.117754
0.235935 0.508507 0.111635
0.287724 0.516289 0.106401
0.335943 0.524544 0.103334
0.38352 0.531426 0.0996262
0.42916 0.534707 0.0943618
0.471748 0.533654 0.0870985
0.503639 0.517617 0.0728618
0.536141 0.502861 0.0592813
0.571374 0.497704 0.050782
0.606531 0.492607 0.042359
0.643137 0.495064 0.0385748
0.679072 0.497505 0.0350347
0.711574 0.501656 0.0336004
0.742779 0.505974 0.0327764
0.772213 0.511238 0.0329137
0.800275 0.516548 0.0335546
0.827268 0.521965 0.0344396
0.852781 0.527108 0.0355077
0.877638 0.531792 0.0364996
0.900679 0.536156 0.0376287
0.922866 0.539773 0.038468
0.939437 0.542184 0.03888
0.956222 0.544106 0.0391394
0.00781262 0.493263 0.12105
0.0173037 0.495674 0.123842
0.0265507 0.497475 0.126162
0.0384833 0.500374 0.127062
0.0499886 0.503975 0.128557
0.0650034 0.507668 0.128389
0.0805524 0.51194 0.128634
0.105974 0.517174 0.128359
0.139422 0.523323 0.12755
0.182513 0.530221 0.124849
0.236561 0.537881 0.119173
0.288884 0.545602 0.11397
0.337285 0.553674 0.110765
0.384787 0.561639 0.107866
0.429831 0.567071 0.104417
0.475242 0.569986 0.0990005
0.514809 0.564141 0.0895552
0.546715 0.548089 0.0753185
0.576196 0.533715 0.0630808
0.611353 0.528634 0.0546426
0.644678 0.524559 0.0475776
0.680613 0.527001 0.0440375
0.713787 0.528801 0.041001
0.745083 0.532738 0.0399176
0.77467 0.536294 0.0391241
0.802762 0.540963 0.0393988
0.829847 0.545556 0.0398871
0.855406 0.550057 0.0406195
0.880171 0.554955 0.0416724
0.903029 0.559258 0.0427405
0.925093 0.563546 0.0438392
0.941146 0.566796 0.0445869
0.957717 0.569207 0.0450141
0.00975052 0.523507 0.128359
0.0193179 0.526085 0.131258
0.0288243 0.528511 0.134051
0.0408179 0.53138 0.13489
0.0531777 0.534432 0.135546
0.0681926 0.538125 0.135378
0.0844739 0.541848 0.134585
0.109941 0.547051 0.134249
0.14197 0.552895 0.133593
0.18471 0.559716 0.130938
0.238453 0.567376 0.126131
0.290639 0.575097 0.12137
0.339239 0.582956 0.117998
0.386923 0.590738 0.114961
0.431571 0.597604 0.112734
0.476387 0.602686 0.109133
0.518746 0.600534 0.101442
0.558297 0.59469 0.0919966
0.586877 0.578882 0.0791943
0.616129 0.564538 0.0670634
0.649454 0.560464 0.0599985
0.682322 0.556634 0.0532692
0.715511 0.558434 0.050248
0.747326 0.559915 0.0474861
0.777005 0.563104 0.0464332
0.805173 0.566003 0.0456855
0.832288 0.569955 0.0457923
0.857908 0.57348 0.0460365
0.882719 0.577737 0.0467689
0.905425 0.581964 0.047776
0.927321 0.586175 0.0488136
0.943099 0.589853 0.0497139
0.959136 0.593118 0.0504616
0.0115969 0.552621 0.134493
0.0213626 0.555718 0.13785
0.03093 0.558312 0.140764
0.0437171 0.561212 0.14139
0.0561379 0.564233 0.142
0.0719005 0.567315 0.140703
0.0881819 0.571038 0.139925
0.114656 0.576013 0.13901
0.146777 0.581857 0.138323
0.188663 0.588678 0.136339
0.242283 0.596399 0.131792
0.293965 0.603922 0.127596
0.342245 0.611582 0.124376
0.389715 0.619181 0.121309
0.43357 0.625925 0.119265
0.478126 0.632609 0.11693
0.521065 0.634226 0.111513
0.563424 0.632074 0.103822
0.596963 0.622309 0.0941176
0.625299 0.606546 0.0814221
0.653208 0.594171 0.0712291
0.686076 0.590341 0.0644999
0.717128 0.586923 0.0587778
0.748943 0.588403 0.0560006
0.779065 0.589349 0.0534524
0.807309 0.591928 0.052491
0.834577 0.594385 0.0517739
0.860273 0.597452 0.0517891
0.885039 0.600885 0.0521096
0.907622 0.604685 0.0529183
0.92929 0.60882 0.0539254
0.944579 0.61236 0.0548257
0.960357 0.616037 0.0557259
0.0133822 0.581155 0.140063
0.0232548 0.584527 0.143633
0.0330205 0.58764 0.14699
0.0460212 0.590509 0.147539
0.0593423 0.593454 0.147814
0.0751507 0.59649 0.146426
0.0921492 0.599588 0.144427
0.118624 0.604562 0.143511
0.151919 0.610376 0.142504
0.193881 0.617197 0.14049
0.247028 0.625132 0.136965
0.298604 0.632715 0.133028
0.346212 0.639963 0.130083
0.393362 0.647364 0.127169
0.436286 0.653971 0.125322
0.480049 0.660517 0.123171
0.5234 0.664652 0.11928
0.566354 0.66627 0.113878
0.601587 0.658549 0.105226
0.634623 0.648386 0.0954604
0.661707 0.634775 0.0848096
0.689311 0.62295 0.0751354
0.720363 0.619532 0.0694133
0.750515 0.616297 0.0641794
0.780636 0.617243 0.0616312
0.809277 0.617731 0.0592508
0.836606 0.619867 0.0583352
0.862516 0.621668 0.0576791
0.887358 0.624643 0.0577554
0.909773 0.627802 0.0582895
0.931319 0.631495 0.0590982
0.946181 0.634928 0.0599985
0.961456 0.638468 0.0608988
0.0150454 0.608637 0.144869
0.0249943 0.612314 0.148592
0.0348821 0.615686 0.152163
0.0485237 0.618753 0.152697
0.0620584 0.621668 0.15288
0.0785382 0.624414 0.150744
0.0955825 0.627466 0.148638
0.123125 0.632044 0.147005
0.156405 0.637858 0.145998
0.198535 0.644587 0.144259
0.251637 0.652506 0.140795
0.302434 0.659953 0.137682
0.349737 0.667048 0.134859
0.39617 0.674006 0.132113
0.438727 0.680339 0.130236
0.481544 0.686824 0.128344
0.523919 0.691386 0.125048
0.567269 0.695506 0.121157
0.605203 0.692546 0.114519
0.639933 0.684413 0.105821
0.669413 0.673533 0.0971695
0.696193 0.660471 0.0870222
0.722698 0.650324 0.0789807
0.75285 0.647105 0.0737621
0.781949 0.644236 0.0691539
0.81059 0.644709 0.0667887
0.838376 0.64506 0.0646372
0.864363 0.646647 0.0638437
0.889311 0.648447 0.0633249
0.911711 0.651255 0.0636759
0.933028 0.654322 0.0641947
0.94757 0.657359 0.0649271
0.962417 0.660792 0.0658427
0.0165713 0.635203 0.149004
0.0266117 0.639139 0.152865
0.0365911 0.642817 0.156588
0.0506142 0.64593 0.157046
0.0649119 0.648951 0.157107
0.081529 0.651606 0.154711
0.0991226 0.654246 0.151644
0.126757 0.658808 0.149981
0.161379 0.664393 0.148638
0.20351 0.671122 0.146883
0.255756 0.678904 0.144274
0.306493 0.686336 0.141222
0.352575 0.692805 0.138949
0.398703 0.699611 0.136324
0.440482 0.705379 0.134356
0.482918 0.711604 0.132418
0.524193 0.716655 0.129793
0.566567 0.721218 0.126482
0.60647 0.721492 0.121172
0.644144 0.718242 0.114443
0.674174 0.707942 0.106386
0.70248 0.696513 0.0979019
0.728359 0.685466 0.0895552
0.754406 0.676326 0.0823987
0.78349 0.673457 0.0778058
0.811673 0.670909 0.0737621
0.83946 0.67126 0.0716106
