public/filters/fashion/FHF03.cube
#Created by: Adobe Photoshop Export Color Lookup Plugin
#Copyright: (C) Copyright 2022 Tim Martin and Presetpro.com
TITLE "Presetpro - Elite Chrome.jpg"
#LUT size
LUT_3D_SIZE 32
#data domain
DOMAIN_MIN 0.0 0.0 0.0
DOMAIN_MAX 1.0 1.0 1.0
#LUT data points
0.000000 0.000000 0.000000
0.007843 0.000000 0.003937
0.016205 0.000000 0.000000
0.024292 0.000000 0.000000
0.040222 0.000000 0.003418
0.058838 0.003937 0.003296
0.068939 0.004669 0.003174
0.087158 0.007843 0.003937
0.105988 0.010742 0.000000
0.133972 0.006714 0.001129
0.169617 0.000000 0.000000
0.209473 0.002533 0.001404
0.248322 0.001526 0.001526
0.300049 0.000000 0.003937
0.342163 0.002167 0.002167
0.395691 0.000000 0.000000
0.439606 0.003937 0.003937
0.487823 0.001770 0.000000
0.536896 0.000000 0.001648
0.583069 0.000000 0.000000
0.624420 0.000000 0.001404
0.663025 0.000000 0.000000
0.704132 0.000000 0.000000
0.742065 0.000000 0.000000
0.779907 0.003052 0.000000
0.822906 0.000000 0.003937
0.859589 0.003296 0.000000
0.888672 0.000000 0.000000
0.931061 0.083252 0.000000
0.963684 0.147491 0.000244
0.991791 0.203156 0.000122
1.000000 0.247070 0.003937
0.003784 0.003937 0.003784
0.007843 0.003937 0.000000
0.012512 0.007843 0.000000
0.028076 0.007721 0.000000
0.040344 0.007965 0.007324
0.056305 0.011261 0.003296
0.073608 0.012268 0.001404
0.091217 0.014923 0.000122
0.121948 0.012024 0.000122
0.144073 0.012543 0.006592
0.181763 0.003937 0.000000
0.220093 0.000000 0.002533
0.260071 0.000000 0.000000
0.306488 0.002289 0.000122
0.352173 0.001770 0.000000
0.401611 0.000000 0.005829
0.443787 0.000000 0.002014
0.491882 0.000000 0.000000
0.537140 0.000122 0.000000
0.584839 0.001526 0.000000
0.628235 0.002411 0.000000
0.673523 0.000000 0.002655
0.708282 0.002655 0.002533
0.743958 0.002777 0.002777
0.780792 0.003052 0.000000
0.820007 0.004669 0.000000
0.860229 0.003937 0.000641
0.901978 0.028961 0.010254
0.927887 0.107544 0.000000
0.964325 0.163574 0.000122
0.988373 0.211273 0.000122
1.000000 0.251221 0.004059
0.000244 0.008087 0.003662
0.004303 0.011627 0.000122
0.015930 0.012024 0.000000
0.027954 0.012146 0.000244
0.044403 0.016449 0.000000
0.060089 0.015808 0.000519
0.078033 0.016205 0.000763
0.103851 0.019226 0.000000
0.122437 0.019867 0.003937
0.154083 0.011780 0.000000
0.189880 0.005829 0.000000
0.231873 0.000000 0.000244
0.260590 0.001526 0.000000
0.315979 0.000000 0.000000
0.358368 0.002167 0.000244
0.409332 0.000000 0.000000
0.451630 0.002136 0.000244
0.499451 0.000000 0.000000
0.539673 0.000244 0.000000
0.587494 0.003662 0.000000
0.629120 0.002533 0.003662
0.673767 0.000000 0.002411
0.713623 0.000000 0.005066
0.747894 0.002899 0.000000
0.786224 0.005829 0.000000
0.823669 0.001526 0.002899
0.860107 0.003784 0.000000
0.895752 0.060211 0.001007
0.934479 0.127533 0.003296
0.964203 0.179626 0.007324
0.995819 0.226562 0.007324
0.999756 0.263000 0.000000
0.000366 0.019989 0.003540
0.011780 0.019623 0.000000
0.016205 0.020233 0.000366
0.027466 0.024292 0.004303
0.051117 0.025177 0.000366
0.061096 0.031738 0.000000
0.081451 0.028198 0.000366
0.108917 0.030853 0.004303
0.134979 0.024292 0.000641
0.164948 0.023163 0.000000
0.202759 0.018738 0.000885
0.241974 0.005829 0.000000
0.278931 0.002411 0.000000
0.329529 0.000000 0.000000
0.367218 0.000366 0.001404
0.419586 0.000000 0.003937
0.464294 0.001648 0.003296
0.513123 0.000000 0.001770
0.555237 0.002014 0.001648
0.600647 0.000000 0.002655
0.638336 0.000366 0.000000
0.683014 0.003540 0.000000
0.720184 0.000366 0.001526
0.754578 0.005432 0.000000
0.789368 0.003540 0.000366
0.830383 0.000366 0.002777
0.870728 0.032257 0.002899
0.897400 0.100311 0.003540
0.935730 0.154968 0.009857
0.967987 0.195953 0.000244
0.999237 0.239349 0.000000
1.000000 0.275269 0.003540
0.007324 0.036316 0.007843
0.012146 0.032776 0.004791
0.012787 0.032623 0.004425
0.028198 0.039215 0.011139
0.044647 0.043640 0.003418
0.067932 0.040863 0.000519
0.085388 0.044159 0.003662
0.113464 0.044647 0.003052
0.150665 0.040741 0.000000
0.187592 0.040100 0.000000
0.223511 0.032135 0.000763
0.264130 0.022766 0.008209
0.305603 0.011261 0.000000
0.344177 0.001007 0.000519
0.387329 0.000519 0.003174
0.435913 0.000000 0.000519
0.482239 0.001526 0.003937
0.523224 0.001648 0.000000
0.564850 0.001648 0.005066
0.606720 0.002014 0.005951
0.646423 0.003937 0.001404
0.689331 0.000000 0.007324
0.729919 0.003418 0.007324
0.763062 0.002411 0.000000
0.798370 0.003021 0.003418
0.833008 0.035309 0.000519
0.874268 0.093353 0.000000
0.908783 0.131439 0.006317
0.939789 0.180145 0.003784
0.971039 0.220367 0.003662
0.999634 0.259705 0.007721
0.996582 0.295135 0.003937
0.004547 0.052887 0.011780
0.011780 0.052246 0.015045
0.015564 0.045654 0.012024
0.024048 0.055908 0.012787
0.039337 0.056915 0.002014
0.060089 0.063995 0.009094
0.081573 0.067810 0.000000
0.116882 0.064880 0.000000
0.153687 0.068176 0.001648
0.193909 0.065887 0.002777
0.238312 0.064636 0.000641
0.278534 0.053497 0.000000
0.320801 0.049316 0.008972
0.364685 0.031250 0.005310
0.409454 0.018341 0.009369
0.453735 0.005829 0.000641
0.498932 0.002655 0.000000
0.542969 0.000641 0.001526
0.582947 0.000641 0.004944
0.624176 0.001770 0.008972
0.664276 0.002533 0.007202
0.701477 0.003296 0.001892
0.739410 0.005035 0.000000
0.774078 0.018951 0.001251
0.807983 0.063110 0.000641
0.847809 0.100677 0.007843
0.880463 0.140533 0.001892
0.907776 0.180023 0.000000
0.944580 0.208862 0.001007
0.975708 0.244904 0.000000
0.995819 0.283478 0.000000
0.996704 0.316895 0.004547
0.003174 0.070465 0.014160
0.006439 0.072998 0.017456
0.013428 0.073608 0.011780
0.019226 0.070831 0.012512
0.031616 0.077301 0.011780
0.047699 0.085510 0.013672
0.079956 0.093994 0.007843
0.113220 0.097137 0.000763
0.153809 0.095001 0.001526
0.197083 0.101440 0.002777
0.239441 0.099792 0.000000
0.296387 0.097260 0.002533
0.342438 0.093231 0.007843
0.390106 0.082855 0.005432
0.432495 0.077789 0.001007
0.479156 0.067657 0.000000
0.522736 0.056519 0.000763
0.563721 0.049194 0.001770
0.595703 0.045135 0.001526
0.640991 0.044373 0.000000
0.679321 0.050842 0.000000
0.714752 0.065765 0.000763
0.751953 0.083862 0.002777
0.784698 0.102081 0.003662
0.811371 0.130432 0.000763
0.854279 0.160645 0.001526
0.889435 0.182281 0.000000
0.918793 0.213776 0.000000
0.948273 0.246674 0.000000
0.980377 0.276031 0.000000
0.999756 0.307648 0.000000
0.995331 0.343445 0.003937
0.006073 0.104218 0.019623
0.003937 0.106384 0.019623
0.003662 0.106140 0.019348
0.003418 0.105865 0.019104
0.014923 0.106506 0.020630
0.037842 0.114868 0.021637
0.060577 0.119019 0.007202
0.108521 0.130798 0.000885
0.156982 0.134705 0.003784
0.197449 0.134705 0.000244
0.244141 0.137756 0.003052
0.296753 0.137756 0.000519
0.350281 0.139282 0.000000
0.407562 0.134064 0.001648
0.450714 0.136475 0.004303
0.501434 0.129791 0.000000
0.540314 0.121674 0.000000
0.582550 0.122192 0.000885
0.617096 0.122192 0.002289
0.656952 0.122314 0.001526
0.694763 0.129791 0.005676
0.729675 0.136993 0.000000
0.760162 0.152924 0.000000
0.789886 0.166992 0.000000
0.828735 0.183929 0.000000
0.862244 0.209991 0.006836
0.891846 0.230865 0.003937
0.922211 0.257812 0.000000
0.955353 0.283478 0.000000
0.988098 0.309540 0.000000
1.000000 0.336365 0.001129
0.996063 0.364319 0.000885
0.001007 0.143311 0.019623
0.000885 0.143433 0.019623
0.000000 0.143555 0.018860
0.000000 0.147247 0.022522
0.000000 0.147247 0.022522
0.007080 0.150787 0.012146
0.037811 0.157745 0.005188
0.091583 0.166718 0.003052
0.135468 0.176575 0.003937
0.190125 0.178619 0.001129
0.241211 0.179871 0.004669
0.291443 0.185455 0.000000
0.353699 0.184937 0.000000
0.409851 0.187469 0.000000
0.458435 0.188232 0.000000
0.515350 0.188354 0.005829
0.564209 0.187469 0.000000
0.603943 0.186584 0.000000
0.640625 0.187469 0.004181
0.675781 0.185944 0.001404
0.706268 0.193787 0.000000
0.740814 0.195068 0.000000
0.772797 0.211517 0.000000
0.806824 0.221741 0.000000
0.839722 0.236542 0.002014
0.875397 0.251862 0.000000
0.899170 0.273102 0.001007
0.934357 0.295258 0.004822
0.961670 0.321198 0.000366
0.991394 0.341797 0.000000
1.000000 0.368103 0.000000
0.996063 0.398102 0.002014
0.000000 0.191132 0.012909
0.001007 0.194031 0.014038
0.002777 0.189484 0.019623
0.000000 0.192261 0.014038
0.003418 0.194427 0.016815
0.000519 0.195190 0.021759
0.011383 0.200104 0.009857
0.064392 0.204926 0.000885
0.123840 0.217316 0.006714
0.179352 0.222504 0.001129
0.237946 0.231476 0.002533
0.293976 0.226440 0.005585
0.355469 0.235535 0.001129
0.407074 0.237671 0.000000
0.460968 0.238708 0.001129
0.515228 0.239319 0.001892
0.573090 0.245026 0.001129
0.620880 0.249329 0.000000
0.660095 0.252228 0.002258
0.696655 0.245667 0.000000
0.724731 0.256409 0.001404
0.756744 0.261597 0.002258
0.788239 0.267914 0.001648
0.821136 0.275391 0.004303
0.850861 0.293213 0.000000
0.880066 0.304474 0.001129
0.912323 0.322571 0.000000
0.940277 0.335724 0.000000
0.965088 0.355072 0.001892
0.995056 0.381653 0.000244
1.000000 0.400238 0.000000
0.996063 0.421356 0.000000
0.000000 0.238953 0.019623
0.000000 0.241608 0.022278
0.000000 0.238953 0.019623
0.001251 0.240204 0.020874
0.002655 0.241608 0.024780
0.003296 0.244904 0.025543
0.000000 0.246796 0.011383
0.024780 0.251984 0.006073
0.097137 0.262238 0.000000
0.159637 0.267395 0.000000
0.217957 0.275513 0.000000
0.285614 0.282227 0.001404
0.351654 0.279694 0.001251
0.402374 0.283356 0.000000
0.458923 0.289917 0.000000
0.517242 0.292603 0.001251
0.565887 0.296631 0.000000
0.621155 0.302582 0.000000
0.665680 0.311829 0.000000
0.711456 0.309387 0.001129
0.740692 0.317261 0.005310
0.772552 0.315979 0.001251
0.797852 0.326874 0.002655
0.831879 0.336243 0.000000
0.864014 0.342163 0.000000
0.889313 0.355835 0.003418
0.918915 0.370514 0.000000
0.947357 0.381775 0.000000
0.977875 0.397705 0.000763
0.994171 0.413666 0.000000
0.998749 0.432129 0.002655
0.997467 0.452118 0.000000
0.000000 0.292084 0.023529
0.000000 0.292084 0.023773
0.000000 0.293213 0.027435
0.000000 0.292450 0.031738
0.000000 0.292084 0.024536
0.005310 0.297150 0.025177
0.005066 0.293457 0.033783
0.000000 0.299408 0.018738
0.069702 0.309906 0.003418
0.144440 0.314209 0.000519
0.208832 0.321930 0.000000
0.269684 0.329895 0.002533
0.336975 0.333710 0.000122
0.395813 0.335205 0.000000
0.451599 0.335968 0.003540
0.514465 0.338898 0.000000
0.560669 0.343689 0.000000
0.612915 0.351654 0.004547
0.659363 0.361267 0.003937
0.706146 0.366455 0.000000
0.747375 0.373047 0.001404
0.785950 0.379608 0.001282
0.817841 0.380859 0.001404
0.849579 0.384186 0.000000
0.879456 0.392914 0.001770
0.901703 0.405792 0.000000
0.926880 0.414917 0.002533
0.960663 0.426941 0.005310
0.981018 0.441101 0.000366
0.998993 0.453491 0.000000
1.000000 0.465515 0.000000
0.993286 0.487915 0.000000
0.002411 0.343933 0.035919
0.004822 0.346344 0.038330
0.000000 0.348999 0.038574
0.000366 0.347473 0.037445
0.001007 0.346863 0.045166
0.004822 0.347870 0.046173
0.000000 0.347870 0.046173
0.000000 0.351166 0.040466
0.040863 0.355194 0.020233
0.129913 0.359619 0.007080
0.194305 0.368469 0.003662
0.254242 0.375305 0.000000
0.325226 0.381653 0.000000
0.388855 0.386963 0.008362
0.446411 0.383392 0.000000
0.508026 0.383545 0.000000
0.559662 0.391876 0.001526
0.611420 0.397980 0.001526
0.655304 0.405182 0.000000
0.700714 0.407562 0.000000
0.748413 0.415558 0.001526
0.790924 0.427307 0.000000
0.825684 0.438934 0.000000
0.854401 0.441986 0.002808
0.885773 0.445007 0.000000
0.913116 0.450714 0.000000
0.937775 0.461212 0.003540
0.964325 0.467407 0.000519
0.988983 0.480957 0.001526
0.997589 0.491455 0.000000
0.999878 0.503845 0.000000
0.998474 0.522827 0.000000
0.000000 0.395813 0.057556
0.000122 0.401886 0.058197
0.001648 0.398071 0.055908
0.003937 0.398071 0.058197
0.002136 0.398071 0.062744
0.004547 0.400726 0.063110
0.000763 0.398071 0.069305
0.000885 0.401123 0.066040
0.012115 0.403015 0.055908
0.110687 0.409332 0.029480
0.187225 0.415039 0.001892
0.246399 0.422241 0.000000
0.311188 0.427063 0.001526
0.371643 0.431091 0.001648
0.438324 0.435150 0.001648
0.494598 0.435272 0.000000
0.555237 0.434143 0.004059
0.599518 0.439453 0.001770
0.650604 0.445770 0.002289
0.696655 0.456024 0.000000
0.740692 0.459442 0.002686
0.784180 0.469696 0.004547
0.823547 0.477661 0.002289
0.860626 0.489807 0.003937
0.893097 0.496887 0.003174
0.919312 0.500824 0.000000
0.949402 0.507263 0.006195
0.972168 0.513092 0.002289
0.993408 0.519287 0.000000
0.999756 0.529266 0.000000
0.998352 0.539124 0.006073
1.000000 0.549377 0.000000
0.002167 0.449432 0.081970
0.001648 0.452087 0.084106
0.000000 0.453094 0.084229
0.002167 0.448059 0.085876
0.000519 0.453247 0.086639
0.002167 0.450562 0.083099
0.004303 0.454498 0.092468
0.000000 0.449829 0.089813
0.014008 0.445892 0.092346
0.106628 0.454865 0.077026
0.183899 0.462860 0.044373
0.246033 0.469055 0.012512
0.306732 0.471588 0.000000
0.370117 0.479309 0.004303
0.431976 0.481201 0.004303
0.490295 0.486877 0.000000
0.543457 0.479431 0.007446
0.593689 0.479431 0.000000
0.644928 0.487793 0.002167
0.689331 0.491180 0.000000
0.735382 0.500183 0.000000
0.778900 0.508270 0.001770
0.817322 0.518646 0.005676
0.853760 0.525482 0.002777
0.887939 0.532562 0.000885
0.927765 0.543182 0.001770
0.950806 0.552399 0.005310
0.980652 0.551910 0.001007
0.997467 0.562408 0.002167
0.998230 0.565582 0.001770
1.000000 0.572021 0.003540
0.995697 0.581787 0.005676
0.002014 0.499664 0.109680
0.000000 0.497650 0.109528
0.000000 0.499664 0.109528
0.000000 0.499664 0.109528
0.002014 0.499664 0.111572
0.001251 0.500916 0.110168
0.002777 0.500427 0.112335
0.004059 0.495605 0.117371
0.016937 0.496765 0.124481
0.107361 0.501556 0.117523
0.181763 0.508759 0.097137
0.246399 0.506134 0.066010
0.309540 0.514587 0.022858
0.362152 0.514954 0.000763
0.423737 0.520905 0.003784
0.480072 0.525085 0.001892
0.545380 0.529022 0.002014
0.593201 0.526855 0.002014
0.633423 0.519653 0.000000
0.684662 0.527618 0.000000
0.724487 0.535583 0.000000
0.770935 0.544830 0.001251
0.810242 0.550659 0.000000
0.846954 0.560516 0.000000
0.879089 0.567749 0.004791
0.919189 0.574310 0.000000
0.953217 0.584808 0.000000
0.980896 0.593292 0.003052
0.997742 0.596954 0.000000
1.000000 0.601624 0.003540
1.000000 0.607452 0.004181
0.997986 0.615540 0.000000
0.000000 0.547394 0.139557
0.002014 0.547394 0.139557
0.000000 0.545624 0.137787
0.002014 0.547394 0.139557
0.001007 0.545502 0.145996
0.002808 0.546906 0.142853
0.000000 0.545502 0.142944
0.004791 0.544342 0.146393
0.018066 0.543457 0.144501
0.118774 0.545502 0.146515
0.197083 0.546265 0.143738
0.256409 0.546631 0.120483
0.308258 0.551300 0.095032
0.360901 0.558777 0.057220
0.416565 0.558899 0.007629
0.474121 0.563080 0.000000
0.531708 0.564972 0.000000
0.583588 0.568909 0.002014
0.629120 0.566742 0.005707
0.676300 0.563080 0.007599
0.718536 0.569397 0.000000
0.760925 0.574707 0.000000
0.806091 0.585480 0.001892
0.838959 0.591400 0.000885
0.880707 0.597351 0.001770
0.914856 0.606598 0.000000
0.949646 0.617340 0.003937
0.978729 0.622772 0.000000
0.999634 0.632782 0.000763
0.997711 0.639221 0.001648
1.000000 0.643280 0.000122
1.000000 0.643524 0.003937
0.003937 0.589020 0.171173
0.005554 0.585358 0.169281
0.001770 0.591156 0.175476
0.000000 0.587616 0.171936
0.000000 0.589020 0.174866
0.001526 0.585480 0.176605
0.003540 0.582672 0.180908
0.004791 0.585480 0.181549
0.059723 0.584320 0.180786
0.154968 0.586212 0.185089
0.222260 0.584198 0.186981
0.271851 0.589020 0.177643
0.320557 0.590515 0.146271
0.370880 0.594574 0.130585
0.427673 0.596863 0.090759
0.472473 0.600891 0.045715
0.527924 0.600769 0.002014
0.577637 0.608612 0.003540
0.627594 0.606842 0.003937
0.666931 0.604431 0.001526
0.712097 0.601929 0.002167
0.754089 0.611267 0.000000
0.799377 0.616455 0.002167
0.839111 0.625702 0.000000
0.871460 0.629486 0.002167
0.910950 0.634552 0.002167
0.941681 0.641113 0.002777
0.974945 0.652496 0.000000
0.997467 0.661377 0.000366
1.000000 0.665039 0.002167
0.996216 0.675171 0.002167
1.000000 0.685272 0.000000
0.000000 0.624817 0.210754
0.002289 0.627075 0.213043
0.000000 0.629364 0.209259
0.000000 0.629364 0.205200
0.000000 0.624817 0.210266
0.003540 0.628082 0.219238
0.001526 0.627838 0.216858
0.025665 0.625946 0.209259
0.114868 0.627075 0.211029
0.190277 0.627594 0.214691
0.246429 0.623169 0.221771
0.295898 0.625458 0.216217
0.335114 0.627075 0.194824
0.384674 0.632660 0.182953
0.430725 0.631012 0.158539
0.478790 0.632904 0.128174
0.528046 0.637207 0.093628
0.573578 0.640991 0.022400
0.621521 0.644409 0.002289
0.669220 0.642273 0.004547
0.712097 0.642761 0.003662
0.748260 0.638458 0.000000
0.792023 0.643280 0.000000
0.830627 0.650879 0.002899
0.868683 0.660095 0.004059
0.910828 0.662506 0.000885
0.938660 0.671234 0.001648
0.974457 0.676300 0.001007
0.997589 0.684906 0.002289
1.000000 0.690582 0.002777
0.994690 0.699188 0.000000
0.998352 0.708801 0.002289
0.000000 0.666931 0.248840
0.000000 0.666931 0.248840
0.000244 0.664795 0.246063
0.005066 0.666565 0.245422
0.001892 0.667328 0.243011
0.001526 0.667816 0.251617
0.021881 0.666931 0.255920
0.104401 0.668457 0.252136
0.177979 0.663116 0.245941
0.237091 0.661743 0.255035
0.279449 0.664520 0.260864
0.324860 0.661621 0.259583
0.357483 0.663025 0.245178
0.402008 0.668457 0.238586
0.446533 0.666687 0.218750
0.489929 0.672363 0.183838
0.528687 0.671234 0.160675
0.573700 0.673889 0.137024
0.621643 0.676178 0.084656
0.662109 0.681091 0.023804
0.712585 0.678711 0.001526
0.752960 0.676025 0.000000
0.783691 0.672363 0.002411
0.823425 0.678192 0.002411
0.865265 0.680603 0.003052
0.905273 0.688812 0.000763
0.937134 0.696777 0.003052
0.964203 0.699432 0.007233
0.987488 0.709930 0.000000
0.994568 0.717010 0.000000
0.996063 0.723358 0.002411
1.000000 0.727264 0.004822
0.000000 0.704254 0.291107
0.001404 0.705627 0.292480
0.000000 0.703125 0.289703
0.002777 0.705017 0.291107
0.005035 0.704254 0.289307
0.066956 0.701080 0.287170
0.131348 0.701080 0.293243
0.186615 0.700592 0.295898
0.238098 0.700317 0.298950
0.278809 0.698944 0.289948
0.317261 0.697784 0.295135
0.354584 0.698944 0.296417
0.391510 0.696411 0.296173
0.428955 0.698059 0.282745
0.467041 0.698944 0.268341
0.506134 0.702362 0.254791
0.542084 0.700836 0.231018
0.584717 0.707397 0.203796
0.621765 0.706787 0.170532
0.665649 0.710571 0.140564
0.709564 0.711853 0.084137
0.750305 0.712097 0.015198
0.789886 0.711853 0.000000
0.823029 0.703094 0.002533
0.856934 0.704742 0.000000
0.895630 0.714111 0.001404
0.927643 0.723236 0.003296
0.963562 0.724731 0.000000
0.986725 0.732697 0.000000
1.000000 0.735626 0.002533
1.000000 0.744720 0.002533
0.996063 0.753845 0.001404
0.029236 0.737396 0.333588
0.046967 0.736115 0.333466
0.067474 0.737396 0.328796
0.099731 0.738800 0.335236
0.149933 0.735626 0.336517
0.180176 0.739410 0.328430
0.213409 0.735992 0.326508
0.255798 0.733978 0.338409
0.290070 0.737762 0.337128
0.323975 0.733734 0.331207
0.355591 0.732056 0.339905
0.387604 0.732208 0.345367
0.421753 0.729431 0.342712
0.455139 0.730957 0.341431
0.485626 0.729675 0.324890
0.518921 0.738007 0.304535
0.556641 0.736755 0.295135
0.593811 0.737396 0.272369
0.631134 0.733856 0.243286
0.672119 0.741058 0.226471
0.708160 0.743835 0.188751
0.741302 0.742584 0.152069
0.789001 0.742706 0.090607
0.819489 0.743713 0.007965
0.857452 0.736511 0.000000
0.892487 0.733978 0.000000
0.920929 0.741943 0.000000
0.951294 0.755219 0.001526
0.987091 0.754852 0.002655
1.000000 0.758270 0.004944
0.998871 0.768646 0.000244
0.996063 0.773956 0.000000
0.171814 0.769135 0.373566
0.184479 0.768005 0.370911
0.205353 0.771912 0.376617
0.223175 0.764465 0.377869
0.237213 0.765228 0.374207
0.259857 0.768494 0.371918
0.288055 0.763184 0.377350
0.312347 0.765106 0.377502
0.342072 0.764069 0.382172
0.369751 0.764069 0.375854
0.392670 0.761292 0.382690
0.423157 0.760162 0.382568
0.450989 0.760284 0.384827
0.479950 0.760162 0.384827
0.510681 0.757385 0.377502
0.543213 0.763184 0.364716
0.574463 0.764069 0.348022
0.603699 0.765839 0.325745
0.639343 0.763947 0.311188
0.671478 0.769531 0.296661
0.712616 0.764069 0.266815
0.753204 0.773071 0.236938
0.790405 0.771912 0.195953
0.817841 0.770905 0.166138
0.853912 0.765228 0.097687
0.887177 0.765228 0.020264
0.915741 0.765717 0.000519
0.951416 0.769257 0.000519
0.980896 0.778107 0.000000
0.999756 0.782043 0.003662
0.997223 0.787598 0.008484
0.996063 0.796600 0.038483
0.276184 0.795959 0.419495
0.280090 0.794067 0.418488
0.284515 0.797607 0.414551
0.297180 0.799255 0.419861
0.311462 0.795074 0.419495
0.326263 0.795959 0.418213
0.338531 0.793793 0.417480
0.368256 0.795959 0.424561
0.385193 0.797974 0.422394
0.410126 0.796600 0.420380
0.434662 0.792023 0.423035
0.464630 0.789642 0.419861
0.485779 0.789520 0.424805
0.515869 0.790771 0.425323
0.540283 0.785217 0.427338
0.571289 0.789124 0.417480
0.595459 0.789001 0.403687
0.622284 0.795197 0.388489
0.654785 0.789764 0.374969
0.687042 0.793549 0.356110
0.717529 0.795593 0.333862
0.752716 0.797729 0.312592
0.790405 0.799896 0.278809
0.822388 0.794067 0.250732
0.854279 0.800018 0.213043
0.890076 0.796722 0.170532
0.918671 0.792664 0.112732
0.944580 0.798370 0.027222
0.976349 0.799500 0.029114
0.999756 0.805573 0.054688
0.993164 0.806702 0.095917
1.000000 0.816589 0.128174
0.345001 0.823029 0.457428
0.347778 0.824036 0.459351
0.356750 0.826965 0.465271
0.365479 0.824799 0.466156
0.373047 0.824799 0.457947
0.389374 0.820251 0.459229
0.401520 0.821625 0.458191
0.414795 0.823914 0.463135
0.437195 0.819733 0.456299
0.456940 0.820892 0.466553
0.479584 0.817841 0.475281
0.499176 0.817841 0.472748
0.524994 0.818481 0.467041
0.543091 0.818604 0.466553
0.567749 0.816956 0.472748
0.592285 0.820892 0.469452
0.614319 0.816956 0.453400
0.643036 0.820007 0.441376
0.669983 0.823151 0.429230
0.695892 0.820007 0.410370
0.726501 0.820374 0.397095
0.761444 0.821381 0.374969
0.790894 0.823914 0.351929
0.824158 0.823792 0.335876
0.849213 0.820892 0.300568
0.884003 0.823792 0.266815
0.915619 0.821136 0.221405
0.941040 0.821381 0.187103
0.970917 0.820892 0.138306
0.995575 0.825165 0.134857
1.000000 0.828857 0.155243
0.993927 0.836578 0.184204
0.411285 0.849457 0.498169
0.418365 0.850983 0.503876
0.421143 0.848450 0.508179
0.427704 0.845551 0.508423
0.429108 0.850616 0.506012
0.449463 0.846161 0.501068
0.455933 0.844788 0.503601
0.473999 0.847076 0.514740
0.484772 0.846558 0.503876
0.501343 0.847961 0.506012
0.519806 0.846680 0.513855
0.538391 0.843384 0.513092
0.558502 0.845673 0.513855
0.580750 0.847076 0.511566
0.601624 0.842377 0.519165
0.625946 0.842773 0.512726
0.641144 0.842773 0.509186
0.666687 0.844788 0.502350
0.689453 0.844788 0.487427
0.707672 0.844788 0.469971
0.740173 0.846161 0.451233
0.772552 0.845306 0.436676
0.797852 0.844788 0.428467
0.822266 0.848450 0.400635
0.852112 0.847961 0.383057
0.883240 0.844788 0.356232
0.915009 0.848846 0.326782
0.939148 0.848694 0.293884
0.971405 0.847961 0.252899
0.989502 0.848694 0.211029
1.000000 0.849335 0.213043
0.996826 0.853394 0.232269
0.477936 0.868683 0.546509
0.484528 0.868683 0.549652
0.487793 0.871979 0.549774
0.489838 0.872620 0.549774
0.491974 0.871368 0.549774
0.498169 0.872620 0.549164
0.513489 0.873260 0.556366
0.517151 0.876526 0.550049
0.534485 0.869690 0.550171
0.546997 0.871490 0.553467
0.564697 0.870087 0.553070
0.585968 0.865417 0.550415
0.599884 0.868683 0.556488
0.619110 0.868683 0.563202
0.634155 0.866302 0.562439
0.656158 0.866669 0.561676
0.676819 0.864899 0.558380
0.695892 0.866913 0.555237
0.715118 0.867676 0.543579
0.738037 0.867798 0.528015
0.750153 0.870728 0.515137
0.777222 0.871979 0.503357
0.806091 0.872101 0.487030
0.834930 0.869690 0.471466
0.860596 0.869965 0.448975
0.880829 0.872620 0.427216
0.908539 0.872620 0.403412
0.936371 0.876160 0.376465
0.967102 0.875519 0.354095
0.988983 0.872620 0.318176
0.999481 0.869446 0.279083
1.000000 0.876526 0.285767
0.541046 0.896027 0.602783
0.538391 0.893097 0.599884
0.544464 0.892609 0.598877
0.548401 0.896515 0.596466
0.550934 0.896027 0.597992
0.560791 0.893738 0.590271
0.569275 0.891846 0.593567
0.583679 0.892609 0.597473
0.591156 0.888184 0.598480
0.603790 0.896027 0.601410
0.616943 0.889679 0.607086
0.625824 0.891205 0.604828
0.641632 0.888672 0.605713
0.657806 0.889191 0.606964
0.673859 0.889191 0.610992
