public/filters/fashion/FHF03.cube
#Created by: Adobe Photoshop Export Color Lookup Plugin
#Copyright: (C) Copyright 2022 Tim Martin and Presetpro.com
TITLE "Presetpro - Elite Chrome.jpg"
#LUT size
LUT_3D_SIZE 5
#data domain
#LUT data points
DOMAIN_MIN 0.000000 0.000000 0.000000
DOMAIN_MAX 0.903226 0.903226 0.903226
0.000000 0.000000 0.000000
0.087158 0.007843 0.003937
0.342163 0.002167 0.002167
0.663025 0.000000 0.000000
0.931061 0.083252 0.000000
0.006073 0.104218 0.019623
0.108521 0.130798 0.000885
0.450714 0.136475 0.004303
0.729675 0.136993 0.000000
0.955353 0.283478 0.000000
0.002167 0.449432 0.081970
0.000000 0.449829 0.089813
0.431976 0.481201 0.004303
0.778900 0.508270 0.001770
0.997467 0.562408 0.002167
0.029236 0.737396 0.333588
0.255798 0.733978 0.338409
0.485626 0.729675 0.324890
0.741302 0.742584 0.152069
0.987091 0.754852 0.002655
0.596985 0.909424 0.640869
0.632507 0.913483 0.637695
0.710052 0.907257 0.650482
0.818970 0.916016 0.622894
0.956482 0.920441 0.514984
0.006958 0.000885 0.098541
0.093719 0.008728 0.085876
0.354828 0.000000 0.107635
0.644653 0.002136 0.127777
0.909180 0.168488 0.119537
0.000000 0.134705 0.140778
0.134705 0.150391 0.152557
0.432373 0.166962 0.140778
0.707031 0.194946 0.127777
0.937134 0.308655 0.102570
0.001770 0.478149 0.248932
0.077759 0.481567 0.248444
0.462463 0.497772 0.186188
0.792816 0.524353 0.094208
0.992798 0.557465 0.057159
0.195343 0.748779 0.429474
0.318420 0.743958 0.428101
0.516113 0.737885 0.432526
0.753571 0.743958 0.312225
0.982300 0.759155 0.222015
0.617828 0.915619 0.672241
0.644775 0.912964 0.673004
0.719666 0.911713 0.683105
0.823792 0.913849 0.660461
0.957489 0.921326 0.569153
0.000000 0.003937 0.406677
0.014038 0.000000 0.406677
0.412384 0.001770 0.398834
0.676025 0.043762 0.387970
0.900452 0.171021 0.377075
0.000000 0.120789 0.451080
0.094238 0.156097 0.451080
0.457672 0.230591 0.440216
0.700439 0.255890 0.421478
0.901337 0.312592 0.393677
0.000000 0.508270 0.496490
0.025909 0.516113 0.497864
0.524323 0.543945 0.520416
0.751434 0.536102 0.489044
0.947510 0.553558 0.459839
0.322327 0.762695 0.599243
0.424286 0.765228 0.602783
0.591003 0.763062 0.613647
0.771912 0.761414 0.557861
0.984070 0.769287 0.519653
0.652649 0.918671 0.746094
0.690063 0.918671 0.748749
0.747131 0.918274 0.754974
0.831116 0.916138 0.743958
0.956116 0.924347 0.676544
0.000000 0.000000 0.700836
0.026550 0.000000 0.702606
0.519135 0.024139 0.704895
0.762329 0.221130 0.695648
0.927002 0.337524 0.676910
0.000000 0.142548 0.714355
0.154572 0.166077 0.720428
0.541779 0.260712 0.724335
0.768005 0.374969 0.708679
0.928650 0.432526 0.689941
0.000000 0.453217 0.727753
0.002655 0.462982 0.733093
0.542145 0.532166 0.744476
0.777100 0.602783 0.734863
0.926117 0.595825 0.712738
0.186127 0.774078 0.759644
0.341827 0.774841 0.761810
0.585449 0.778748 0.768402
0.814545 0.796204 0.784454
0.952179 0.766998 0.736511
0.656433 0.930542 0.829742
0.683502 0.927765 0.831879
0.759125 0.928162 0.839722
0.856812 0.927399 0.841125
0.946991 0.928650 0.799377
0.258972 0.000000 0.927887
0.418732 0.001251 0.930939
0.660461 0.167358 0.924347
0.856934 0.443909 0.914215
0.983185 0.539276 0.900452
0.275787 0.175842 0.928772
0.419342 0.208466 0.932587
0.655151 0.327881 0.923859
0.850739 0.521942 0.912079
0.979645 0.602417 0.901581
0.002167 0.440613 0.931824
0.308685 0.474609 0.931824
0.614166 0.541779 0.924713
0.844147 0.657288 0.915100
0.966095 0.711823 0.902985
0.000000 0.735626 0.927765
0.001770 0.731323 0.924347
0.458160 0.718292 0.919556
0.814178 0.777496 0.920807
0.960022 0.832001 0.924347
0.562439 0.932587 0.940033
0.597961 0.930786 0.935730
0.702576 0.934357 0.936096
0.837585 0.933472 0.940430
0.964325 0.948639 0.951813
