public/filters/fashion/FHF05.cube
TITLE "Developed by Cinegrading"
LUT_3D_SIZE 9
0 0 0.00820935
0.101198 0.015671 0.0193637
0.247959 0.0231022 0.0106203
0.367147 0.0356603 0.00772107
0.483787 0.0484169 0.00531014
0.596689 0.0602579 0.00355535
0.704677 0.0720073 0.00280766
0.811826 0.0862898 0.00331121
0.915801 0.103838 0.00643931
0 0.0634165 0.0223545
0.0520943 0.0800641 0.0261845
0.213626 0.0900587 0.0123445
0.354192 0.102129 0.00726329
0.486641 0.117449 0.00419623
0.610666 0.131792 0.00241093
0.722286 0.144167 0.00192264
0.828809 0.157275 0.00227359
0.926757 0.170123 0.00358587
0 0.162203 0.0443122
0.0374762 0.180697 0.0569162
0.186221 0.184268 0.0289464
0.343191 0.194018 0.0108644
0.491341 0.206195 0.00427253
0.625162 0.216327 0.00187686
0.73875 0.225193 0.00138857
0.843229 0.235416 0.00198367
0.936126 0.246372 0.00291447
0 0.26479 0.0659648
0.0350652 0.277958 0.07776
0.169253 0.304921 0.0659495
0.331212 0.288655 0.0298466
0.489296 0.301411 0.0126802
0.634684 0.32134 0.00570687
0.753628 0.327413 0.00329595
0.85655 0.33138 0.00340276
0.944106 0.337438 0.0043946
0.00181582 0.373846 0.0916609
0.0402228 0.385306 0.101366
0.146563 0.409155 0.0983139
0.340795 0.432456 0.0748302
0.485191 0.400168 0.0342412
0.639506 0.414969 0.0191348
0.76434 0.43917 0.0181125
0.868391 0.45066 0.0187381
0.950881 0.452262 0.0180667
0.00781262 0.493263 0.12105
0.0499886 0.503975 0.128557
0.139422 0.523323 0.12755
0.337285 0.553674 0.110765
0.514809 0.564141 0.0895552
0.644678 0.524559 0.0475776
0.77467 0.536294 0.0391241
0.880171 0.554955 0.0416724
0.957717 0.569207 0.0450141
0.0150454 0.608637 0.144869
0.0620584 0.621668 0.15288
0.156405 0.637858 0.145998
0.349737 0.667048 0.134859
0.523919 0.691386 0.125048
0.669413 0.673533 0.0971695
0.781949 0.644236 0.0691539
0.889311 0.648447 0.0633249
0.962417 0.660792 0.0658427
0.0206149 0.71136 0.16112
0.071046 0.724697 0.165225
0.168841 0.738247 0.154421
0.352407 0.763134 0.147417
0.518044 0.783703 0.138964
0.672206 0.793805 0.125399
0.791836 0.764538 0.101595
0.893812 0.746151 0.0855421
0.965286 0.750149 0.0836957
0.0252384 0.81387 0.180362
0.0766461 0.823911 0.178622
0.175875 0.83241 0.165133
0.33048 0.847715 0.15787
0.478523 0.861006 0.148882
0.629313 0.876967 0.140475
0.77734 0.882689 0.126833
0.89543 0.854551 0.108278
0.9673 0.840574 0.0988632
0 0.000823987 0.108736
0.106279 0.0146792 0.112016
0.26331 0.0178225 0.0942702
0.376287 0.0239261 0.0790417
0.484672 0.029572 0.0728008
0.589502 0.0352483 0.0695201
0.691691 0.0430457 0.0676432
0.799756 0.061387 0.0658579
0.907423 0.0911116 0.0653086
0 0.0779278 0.121279
0.0461433 0.0965744 0.127642
0.208835 0.105547 0.0995956
0.354574 0.118898 0.0825666
0.491341 0.132326 0.069749
0.616556 0.14493 0.0639963
0.726452 0.155749 0.062211
0.831205 0.169863 0.0626688
0.928603 0.183673 0.0637369
0 0.183963 0.143145
0.0309453 0.186664 0.141253
0.190326 0.198123 0.110765
0.350256 0.200412 0.0809186
0.49778 0.207172 0.0681773
0.631006 0.218112 0.0623178
0.743862 0.227558 0.06009
0.847257 0.239506 0.0601663
0.936858 0.250736 0.0613107
0.000549325 0.287495 0.160281
0.0299229 0.286839 0.155566
0.150576 0.308751 0.147097
0.33576 0.295018 0.0938125
0.49514 0.305257 0.0713054
0.642084 0.312444 0.0615244
0.760021 0.314549 0.0584268
0.862486 0.321813 0.0585031
0.944961 0.327916 0.0598154
0.00381476 0.396902 0.180697
0.0347753 0.397208 0.177676
0.122072 0.411612 0.177066
0.32723 0.432425 0.13962
0.487404 0.400809 0.0903944
0.645426 0.416876 0.0725719
0.772549 0.433204 0.0683604
0.876905 0.437079 0.0672007
0.953353 0.431983 0.0654612
0.0104372 0.513375 0.203067
0.0443427 0.517937 0.204334
0.123384 0.525933 0.202136
0.310887 0.550484 0.177417
0.50457 0.566369 0.149859
0.648386 0.524422 0.100938
0.783413 0.539834 0.0920119
0.890929 0.561425 0.0956436
0.961852 0.565881 0.0946059
0.0174563 0.623941 0.21944
0.0548104 0.631662 0.22443
0.138277 0.639231 0.219837
0.312596 0.663722 0.201953
0.50692 0.690013 0.184588
0.670481 0.681987 0.157382
0.79086 0.650278 0.1252
0.900572 0.658335 0.120546
0.96698 0.67071 0.122591
0.0224613 0.722606 0.233173
0.0621347 0.730205 0.234821
0.149691 0.738277 0.227787
0.314595 0.76022 0.211475
0.497444 0.782132 0.198291
0.664591 0.797375 0.184955
0.797787 0.772457 0.160021
0.903655 0.755062 0.143175
0.968856 0.759915 0.141604
0.026276 0.820371 0.248997
0.0655528 0.826001 0.246967
0.156481 0.83183 0.242756
0.300923 0.845716 0.221561
0.460563 0.859617 0.208316
0.617319 0.876326 0.1991
0.767025 0.886442 0.186969
0.898238 0.8645 0.166979
0.96936 0.847929 0.156161
0 0.0271153 0.215564
0.066041 0.01355 0.199771
0.258549 0.0222171 0.190066
0.380407 0.0285191 0.181033
0.492546 0.030457 0.170825
0.595605 0.0327764 0.156252
0.693141 0.0353094 0.143786
0.791028 0.0419165 0.139559
0.890593 0.0577401 0.137728
0 0.118547 0.229358
0.0308995 0.111589 0.227237
0.209873 0.0992752 0.190692
0.355184 0.102831 0.17319
0.484474 0.107027 0.15407
0.605325 0.115724 0.133669
0.715938 0.130571 0.124361
0.82179 0.152193 0.122637
0.923476 0.175601 0.12314
0.000534066 0.204929 0.243351
0.0290684 0.204486 0.244129
0.150713 0.218753 0.23357
0.325093 0.217487 0.194156
0.473884 0.232136 0.177295
0.621012 0.242634 0.159106
0.741039 0.249638 0.146181
0.844953 0.258595 0.137881
0.938521 0.268376 0.128161
0.00241093 0.309804 0.264408
0.031754 0.311955 0.264515
0.104631 0.312596 0.255573
0.319707 0.316152 0.207187
0.479728 0.320897 0.18291
0.634531 0.321279 0.156527
0.758144 0.324269 0.140688
0.861769 0.332052 0.131502
0.94641 0.338445 0.123873
0.00653086 0.416068 0.281346
0.0373999 0.421866 0.282231
0.0965286 0.415808 0.270634
0.279316 0.434409 0.244923
0.474632 0.416052 0.190509
0.642496 0.427787 0.149538
0.775158 0.425986 0.131624
0.879545 0.426963 0.126452
0.953933 0.424155 0.123217
0.0130465 0.530449 0.300664
0.0467689 0.539025 0.30222
0.108217 0.53402 0.289006
0.251575 0.548379 0.27454
0.473365 0.570794 0.237842
0.643275 0.532494 0.170535
0.786679 0.54847 0.153323
0.896742 0.564446 0.154086
0.963912 0.555093 0.147204
0.0197604 0.638911 0.314611
0.0565805 0.646845 0.313832
0.124147 0.64593 0.303197
0.257939 0.662623 0.292042
0.470817 0.68777 0.265232
0.662272 0.694255 0.22475
0.792889 0.658045 0.185916
0.906645 0.668299 0.181415
0.969329 0.678691 0.182589
0.0243381 0.733928 0.319829
0.0627298 0.740169 0.315267
0.136339 0.742275 0.309941
0.268437 0.760128 0.297124
0.466575 0.781704 0.275929
0.652537 0.800214 0.246906
0.799725 0.784146 0.221912
0.909346 0.764187 0.20267
0.970687 0.769787 0.203006
0.0274205 0.828107 0.330434
0.0667582 0.831937 0.32137
0.131884 0.832441 0.317143
0.258854 0.845579 0.310933
0.427893 0.859709 0.292638
0.60177 0.875364 0.263996
0.75819 0.88864 0.246998
0.898817 0.874083 0.227604
0.970489 0.85536 0.214374
0 0.0631571 0.316655
0.0547799 0.0166629 0.285054
0.208392 0.0209964 0.275257
0.374578 0.0332647 0.26772
0.491814 0.0403906 0.259571
0.599817 0.0405585 0.253071
0.698039 0.038117 0.247166
0.795285 0.0417792 0.241001
0.891096 0.0542458 0.22295
0.000457771 0.154513 0.328862
0.028748 0.141527 0.327871
0.152667 0.100053 0.287114
0.353338 0.106981 0.265919
0.486595 0.114137 0.254826
0.605814 0.111742 0.243458
0.706157 0.105745 0.227527
0.804623 0.112367 0.209506
0.906172 0.135073 0.191608
0.00138857 0.233539 0.339239
0.0304265 0.236591 0.34464
0.105226 0.230228 0.337667
0.319493 0.211078 0.285786
0.470527 0.211292 0.256657
0.610819 0.215351 0.233692
0.728923 0.226871 0.218616
0.83212 0.241367 0.210575
0.930007 0.261738 0.20885
0.00357061 0.318532 0.351507
0.0342107 0.327276 0.360418
0.09308 0.3234 0.355886
0.275761 0.337118 0.333791
0.461051 0.333867 0.288411
0.611582 0.347784 0.267597
0.747005 0.354437 0.247059
0.853803 0.357824 0.234577
0.943786 0.360098 0.221988
0.00825513 0.427329 0.374075
0.0411994 0.440864 0.383688
0.0927749 0.437476 0.376242
0.211872 0.438148 0.356207
0.461204 0.44181 0.3037
0.628794 0.443992 0.276448
0.767071 0.438056 0.247288
0.873838 0.438804 0.234195
0.952361 0.43595 0.220768
0.0146944 0.540032 0.392752
0.0503395 0.554086 0.400092
0.102953 0.5523 0.390173
0.202518 0.546944 0.374182
0.415549 0.57203 0.348837
0.630884 0.553658 0.292653
0.785016 0.562676 0.253422
0.898436 0.562402 0.234333
0.963607 0.545678 0.219821
0.0213169 0.649088 0.407111
0.0595102 0.659937 0.409628
0.115328 0.658534 0.396521
0.213581 0.659434 0.385519
0.403494 0.684764 0.371832
0.635538 0.707546 0.337377
0.790082 0.670283 0.275364
0.909865 0.682231 0.255314
0.970489 0.685695 0.248447
0.0260624 0.744961 0.41416
0.0657511 0.752346 0.411597
0.122515 0.749981 0.394797
0.232609 0.757656 0.391455
0.415518 0.782345 0.375082
0.626795 0.805173 0.34963
0.79762 0.800702 0.306111
0.912306 0.775509 0.270787
0.971481 0.781155 0.269459
0.0290227 0.837751 0.425422
0.0693217 0.841596 0.41709
0.124636 0.838621 0.402396
0.227756 0.842496 0.396933
0.388891 0.860746 0.38175
0.574746 0.876493 0.360449
0.747356 0.892332 0.325887
0.899184 0.885588 0.296773
0.970977 0.863355 0.275547
0.000457771 0.0881056 0.408225
0.0505837 0.0289311 0.372885
0.182193 0.0222934 0.357137
0.333608 0.0344854 0.353155
0.489204 0.0443427 0.345235
0.601678 0.0514687 0.337636
0.703105 0.0542458 0.333837
0.800443 0.0559396 0.33225
0.896666 0.0618906 0.325277
0.00146487 0.183169 0.422278
0.0309911 0.171191 0.425269
0.122133 0.114199 0.386786
0.295033 0.104616 0.35523
0.484932 0.117037 0.344839
0.610422 0.124025 0.334615
0.715053 0.1243 0.32726
0.809857 0.124407 0.320775
0.900526 0.124315 0.303548
0.00337224 0.261372 0.431662
0.0336614 0.269169 0.442145
0.0903639 0.258518 0.439292
0.259129 0.210513 0.390539
0.469978 0.212757 0.351644
0.612512 0.215534 0.332616
0.726009 0.212543 0.318898
0.821912 0.211749 0.304433
0.915145 0.223941 0.283635
0.00538643 0.33727 0.440269
0.0370031 0.350668 0.453559
0.0876173 0.352453 0.455268
0.209918 0.344381 0.443961
0.452522 0.327047 0.384878
0.605524 0.323201 0.344213
0.734813 0.325414 0.317922
0.84062 0.338216 0.307973
0.935668 0.353704 0.301152
0.00857557 0.425788 0.452613
0.0421607 0.443336 0.467796
0.0944533 0.446281 0.469245
0.19379 0.441642 0.461402
0.416373 0.463722 0.434073
0.613642 0.460899 0.386496
0.751644 0.470466 0.36643
0.866819 0.470466 0.346227
0.951324 0.463661 0.325353
0.0159609 0.54696 0.481651
0.053193 0.564843 0.49395
0.105348 0.56759 0.49131
0.191165 0.563302 0.48043
0.33434 0.574838 0.461006
0.621485 0.581353 0.408209
0.777264 0.57911 0.383993
0.893736 0.567727 0.356527
0.962097 0.553323 0.334874
0.0230106 0.657771 0.4981
0.062211 0.670481 0.50399
0.116472 0.671443 0.496437
0.196536 0.669551 0.483253
0.3308 0.680888 0.476432
0.589319 0.710887 0.449653
0.781018 0.691096 0.400473
0.910246 0.69868 0.381338
0.970855 0.688899 0.359838
0.0274205 0.753689 0.505211
0.0679026 0.762356 0.505791
0.123262 0.760861 0.492393
0.205264 0.759411 0.47567
0.35906 0.779599 0.47599
0.584543 0.80499 0.454032
0.782788 0.820325 0.428534
0.913176 0.791699 0.38764
0.972015 0.798413 0.384131
0.0302281 0.845258 0.514656
0.0712596 0.849943 0.509316
0.12639 0.846189 0.494041
0.206546 0.843809 0.478904
0.349477 0.859205 0.474617
0.543725 0.877317 0.450813
0.730327 0.897887 0.431571
0.895918 0.901884 0.407828
0.971801 0.875624 0.368292
0.00311284 0.111208 0.496071
0.048661 0.0456703 0.461692
0.175692 0.0262455 0.437552
0.298421 0.0333562 0.431144
0.451011 0.0468452 0.43032
0.600839 0.0551766 0.422858
0.706172 0.061799 0.416876
0.805814 0.0682231 0.416953
0.905303 0.0810712 0.413687
0.00373846 0.211078 0.512245
0.0344701 0.198047 0.517357
0.100649 0.134478 0.485618
0.26183 0.105562 0.441718
0.422187 0.113619 0.43209
0.609674 0.126406 0.423728
0.7205 0.132677 0.415915
0.819089 0.139483 0.412894
0.910475 0.146242 0.403967
0.00590524 0.289723 0.52108
0.0370794 0.299351 0.533928
0.0867323 0.289509 0.535164
0.216953 0.222492 0.49131
0.391165 0.21001 0.453544
0.612879 0.216037 0.424964
0.732708 0.219577 0.414282
0.829938 0.221057 0.407813
0.915831 0.221576 0.391135
0.00793469 0.36437 0.529335
0.0404669 0.379171 0.543633
0.0876783 0.383719 0.549081
0.186648 0.364553 0.537743
0.371389 0.321508 0.493965
0.607156 0.324025 0.43978
0.738354 0.320363 0.416999
0.838483 0.315099 0.403067
0.924147 0.314061 0.379904
0.0103609 0.442161 0.538201
0.0443732 0.459388 0.553475
0.0938735 0.466041 0.559075
0.182361 0.464454 0.556435
0.324224 0.467399 0.550423
0.603387 0.450767 0.479515
0.73843 0.444373 0.442588
0.848722 0.441947 0.419989
0.940459 0.45095 0.405661
0.0157015 0.541573 0.555688
0.0529946 0.561196 0.571237
0.106706 0.569085 0.575967
0.188006 0.570809 0.575082
0.302388 0.577707 0.574823
0.580484 0.603525 0.53843
0.75346 0.601923 0.506706
0.882002 0.598505 0.478737
0.961013 0.585962 0.452964
0.0249638 0.666728 0.585779
0.0657359 0.681086 0.595056
0.121691 0.68481 0.593805
0.188067 0.684367 0.587747
0.296818 0.689723 0.583703
0.517571 0.709758 0.56022
0.766003 0.721569 0.525063
0.905516 0.716609 0.506691
0.970123 0.694682 0.479286
0.0299077 0.764904 0.595331
0.0713359 0.773892 0.59852
0.127016 0.773968 0.591791
0.191882 0.771832 0.579782
0.30013 0.777203 0.571847
0.519127 0.803021 0.55726
0.749569 0.831342 0.540948
0.907942 0.812512 0.504936
0.972137 0.818586 0.507225
0.0322271 0.854322 0.601785
0.073579 0.858869 0.599451
0.128908 0.855695 0.587381
0.19353 0.851362 0.572931
0.300816 0.85565 0.562158
0.499199 0.877485 0.544778
0.704341 0.898695 0.526116
0.884382 0.915145 0.512901
0.972122 0.890181 0.478401
0.00572213 0.130861 0.578439
0.0500496 0.0592966 0.542809
0.178622 0.0317388 0.513039
0.289052 0.0354009 0.505852
0.408591 0.0447547 0.504112
0.576059 0.0592508 0.50338
0.705913 0.0652018 0.498756
0.807202 0.071397 0.495262
0.910445 0.088716 0.495216
0.00588998 0.235721 0.595483
0.0378119 0.21796 0.600443
0.0951095 0.150195 0.569879
0.247227 0.109636 0.523293
0.378851 0.11133 0.50988
0.565255 0.125109 0.505669
0.719234 0.134081 0.500099
0.822522 0.143328 0.495094
0.919768 0.15697 0.492012
0.00825513 0.31516 0.604242
0.0397498 0.322728 0.616281
0.0872358 0.311177 0.618814
0.187778 0.235813 0.580667
0.353552 0.207813 0.537102
0.546075 0.211002 0.512978
0.731701 0.218112 0.500481
0.835859 0.225284 0.494133
0.927108 0.2336 0.486809
0.0104067 0.390249 0.612512
0.0434272 0.403784 0.62565
0.0910048 0.405997 0.630884
0.176181 0.384894 0.622477
0.325078 0.325521 0.583719
0.531075 0.313741 0.538399
0.738628 0.315465 0.502739
0.846387 0.319432 0.494041
0.93283 0.321492 0.484184
0.0129091 0.466102 0.621515
0.0474556 0.481743 0.635065
0.0975052 0.487831 0.640513
0.170397 0.489067 0.642008
0.29305 0.4757 0.633555
0.52636 0.436362 0.579004
0.741756 0.437888 0.525841
0.854139 0.435676 0.510521
0.93785 0.427131 0.493019
0.0170138 0.552361 0.634516
0.0537881 0.568597 0.647822
0.107103 0.576074 0.653208
0.17969 0.578515 0.654734
0.28867 0.585184 0.657298
0.506172 0.597971 0.640177
0.740673 0.591119 0.587579
0.860487 0.578805 0.557885
0.947127 0.567239 0.531823
0.0242313 0.658564 0.654902
0.0649424 0.674586 0.666758
0.122087 0.682231 0.670756
0.18941 0.686107 0.67155
0.290578 0.696193 0.676661
0.463203 0.713527 0.672953
0.736904 0.741009 0.641886
0.889799 0.73695 0.619104
0.968246 0.723156 0.593027
0.0322271 0.774716 0.67895
0.0754253 0.784939 0.685054
0.13254 0.787091 0.683604
0.192599 0.786374 0.678706
0.28098 0.791058 0.676295
0.434012 0.803449 0.671519
0.690852 0.830472 0.647227
0.896193 0.842878 0.624628
0.972183 0.840833 0.621149
0.0348669 0.864897 0.685176
0.0776379 0.869902 0.685969
0.133196 0.867414 0.678584
0.191775 0.863767 0.668803
0.273228 0.86421 0.6598
0.412512 0.872618 0.64828
0.661463 0.898482 0.622995
0.865797 0.923781 0.612253
0.972122 0.907179 0.580713
0.00733959 0.157992 0.657343
0.0549935 0.0682078 0.615045
0.189197 0.0379034 0.583703
0.292988 0.0389258 0.576944
0.395438 0.046128 0.574502
0.535973 0.0576486 0.573434
0.692439 0.0695659 0.573617
0.807736 0.0753185 0.572366
0.911971 0.0910353 0.570565
0.00781262 0.256413 0.671473
0.0403906 0.232074 0.675242
0.098558 0.157733 0.640742
0.248005 0.115923 0.59588
0.367788 0.113649 0.581704
0.513924 0.122545 0.576837
0.696406 0.136507 0.575341
0.821195 0.144854 0.573281
0.922332 0.159777 0.56997
0.0104067 0.337179 0.680903
0.041886 0.34078 0.69044
0.0899367 0.323079 0.691279
0.179126 0.245274 0.654261
0.338369 0.208194 0.610544
0.493431 0.20795 0.590097
0.697215 0.215732 0.576425
0.833738 0.22359 0.572946
0.93138 0.237339 0.568322
0.0128023 0.413108 0.689372
0.0460059 0.423117 0.699519
0.0939498 0.421927 0.703777
0.171435 0.395727 0.694606
0.295247 0.327276 0.658488
0.482994 0.304677 0.615396
0.692699 0.307622 0.582635
0.843626 0.312627 0.572152
0.939055 0.326925 0.568933
0.0155947 0.489601 0.699214
0.05037 0.501427 0.709331
0.100786 0.504723 0.713115
0.164675 0.502831 0.71429
0.276341 0.478386 0.703471
0.476844 0.425071 0.655268
0.687373 0.420127 0.606439
0.852522 0.421759 0.582391
0.946273 0.434195 0.581033
0.0191653 0.570459 0.710292
0.055787 0.582818 0.720424
0.108873 0.588205 0.724208
0.170993 0.589441 0.725765
0.273716 0.594217 0.728878
0.452125 0.588876 0.71516
0.689876 0.563684 0.66128
0.864439 0.56556 0.625666
0.95346 0.565423 0.617075
0.0246738 0.663264 0.725795
0.0641489 0.674937 0.734966
0.119982 0.680552 0.738216
0.184222 0.682887 0.739178
0.278981 0.691264 0.744823
0.425864 0.707225 0.748638
0.685908 0.732891 0.728801
0.874006 0.730159 0.696956
0.95819 0.713252 0.672847
0.0314031 0.76492 0.742657
0.074464 0.776379 0.75079
0.132265 0.780896 0.752514
0.193652 0.783932 0.752865
0.275837 0.792599 0.757412
0.400931 0.807034 0.763546
0.635386 0.835019 0.752194
0.874434 0.862943 0.731106
0.970733 0.859648 0.720363
0.0364996 0.870848 0.760006
0.0807813 0.878111 0.764096
0.137606 0.877684 0.761685
0.196506 0.876265 0.757946
0.263493 0.877638 0.755169
0.361501 0.88191 0.752056
0.552712 0.896208 0.737209
0.828855 0.925231 0.708934
0.972061 0.932479 0.692683
0.00762951 0.179507 0.727657
0.0543526 0.0801862 0.684474
0.196521 0.0443732 0.648585
0.300862 0.0427558 0.641764
0.396689 0.0493324 0.638636
0.517205 0.0580606 0.637842
0.668681 0.0710613 0.638361
0.802899 0.0835279 0.641367
0.914748 0.0987869 0.642359
0.00958267 0.274189 0.7411
0.0397803 0.255802 0.74638
0.0982528 0.179065 0.71426
0.252354 0.12517 0.6636
0.371801 0.117311 0.646952
0.497414 0.123857 0.641443
0.666133 0.1393 0.640497
0.811841 0.152468 0.642191
0.923217 0.166339 0.642802
0.0121462 0.354849 0.749722
0.0437476 0.357641 0.757931
0.0899519 0.3346 0.757107
0.174456 0.255909 0.721843
0.339223 0.209171 0.674113
0.478126 0.205264 0.65481
0.658244 0.214878 0.643671
0.818692 0.226993 0.642405
0.930663 0.241642 0.641947
0.0150301 0.433051 0.759609
0.048127 0.439185 0.766537
0.0948806 0.432746 0.768002
0.166232 0.401114 0.757931
0.281987 0.325109 0.720821
0.462654 0.295918 0.678096
0.649348 0.30193 0.6551
0.82327 0.310872 0.6421
0.937499 0.32781 0.642771
0.0179751 0.509789 0.76939
0.0526589 0.517357 0.776303
0.102541 0.516686 0.777523
0.161624 0.507927 0.776074
0.26331 0.473671 0.762478
0.443366 0.412345 0.717083
0.645487 0.403235 0.677073
0.82649 0.410773 0.650324
0.944366 0.430365 0.652857
0.0211643 0.587716 0.779004
0.0572519 0.595178 0.785672
0.109331 0.59649 0.786709
0.168795 0.593668 0.78584
0.240864 0.591546 0.787472
0.409537 0.571252 0.77351
0.646876 0.532082 0.720317
0.829862 0.53872 0.683574
0.953384 0.557275 0.684092
0.0255589 0.67245 0.791241
0.0638132 0.679332 0.797101
0.1178 0.680766 0.797726
0.178119 0.68072 0.797574
0.251438 0.684077 0.801221
0.378225 0.695369 0.808118
0.630961 0.702541 0.786923
0.836378 0.695735 0.749142
0.963256 0.707927 0.740505
0.0310979 0.765499 0.806363
0.0727092 0.773129 0.812131
0.128817 0.775051 0.812421
0.188785 0.775616 0.811841
0.266682 0.781323 0.81561
0.358144 0.789837 0.821897
0.558053 0.817258 0.825895
0.83946 0.854902 0.807355
0.96875 0.85655 0.793194
0.035935 0.859525 0.818952
0.0798505 0.866651 0.823835
0.136828 0.867277 0.823087
0.19617 0.867201 0.82182
0.267552 0.871611 0.823743
0.357061 0.879438 0.828092
0.452476 0.888823 0.832761
0.692744 0.920226 0.828489
0.968154 0.950301 0.80708
