public/filters/travel/FHT01.cube
TITLE "Generated by Resolve"
LUT_3D_SIZE 33
0 0.00714122 0.0282902
0.00894179 0.00569161 0.0268406
0.0381933 0.00381476 0.0249638
0.0661631 0.00227359 0.0234226
0.093492 0.000915541 0.0220645
0.120562 0 0.0200961
0.149432 0 0.0185245
0.180163 0 0.0164187
0.213367 0 0.0137636
0.249241 0 0.0103456
0.287938 0 0.0059968
0.32813 0 0.0012665
0.369192 0 0
0.409857 0 0
0.451362 0 0
0.493172 0 0
0.534722 0 0
0.57525 0 0
0.614847 0 0
0.652491 0 0
0.688121 0 0
0.722011 0 0
0.754223 0 0
0.784573 0 0
0.813611 0 0
0.839994 0 0
0.863386 0 0
0.884916 0 0
0.906752 0 0
0.930953 0 0
0.955245 0 0
0.979461 0 0
1 0 0
0 0.028809 0.0298161
0.0103609 0.0272526 0.028275
0.0391089 0.0248722 0.0258793
0.0674601 0.0237125 0.0247196
0.0949111 0.0224765 0.0234989
0.122621 0.021149 0.0221561
0.151553 0.0196384 0.0206607
0.182284 0.0175174 0.0185397
0.215259 0.0146639 0.015671
0.251041 0.0111238 0.0121462
0.289784 0.0068513 0.0078584
0.329915 0.00202945 0.00303655
0.370794 0 0
0.411673 0 0
0.453178 0 0
0.494789 0 0
0.536568 0 0
0.577188 0 0
0.616678 0 0
0.654414 0 0
0.690333 0 0
0.724346 0 0
0.756466 0 0
0.786969 0 0
0.816388 0 0
0.842924 0 0
0.866377 0 0
0.888136 0 0
0.910414 0 0
0.934813 0 0
0.959274 0 0
0.98378 0 0
1 0 0
0 0.0506142 0.0298619
0.0108644 0.0495155 0.0287633
0.0402075 0.0477302 0.026978
0.0682536 0.0462654 0.0255131
0.0958267 0.0451667 0.0244144
0.123445 0.0437476 0.0229953
0.152148 0.0420081 0.0212558
0.182864 0.0398718 0.0191196
0.21593 0.0370947 0.0163424
0.251606 0.033463 0.012726
0.290288 0.029099 0.00834669
0.330571 0.024445 0.00370794
0.371481 0.0194553 0
0.412177 0.0145266 0
0.453956 0.00959792 0
0.495674 0.00450141 0
0.537362 0 0
0.578058 0 0
0.617899 0 0
0.655726 0 0
0.69163 0 0
0.725917 0 0
0.758373 0 0
0.78909 0 0
0.81854 0 0
0.845335 0 0
0.869261 0 0
0.891325 0 0
0.913695 0 0
0.938384 0 0
0.963134 0 0
0.987976 0 0
1 0 0
0 0.0732738 0.0310826
0.0117647 0.0718547 0.0296635
0.0412299 0.0701915 0.0280003
0.0691997 0.0686503 0.0264591
0.0965133 0.0672923 0.0251011
0.124269 0.0659953 0.0238041
0.153033 0.064332 0.0221408
0.183642 0.062089 0.0198978
0.216678 0.0592813 0.0170901
0.252537 0.0558328 0.0136416
0.291218 0.0514839 0.00929274
0.331411 0.0467384 0.00454719
0.372625 0.0420386 0
0.413428 0.0372168 0
0.455131 0.0322118 0
0.496956 0.0272374 0
0.538994 0.0225223 0
0.579873 0.0179294 0
0.619684 0.0137179 0
0.657725 0.0100557 0
0.694072 0.00721752 0
0.728511 0.00471504 0
0.761105 0.00283818 0
0.792111 0.00149538 0
0.821866 0.00062562 0
0.849165 0.00077821 0
0.873167 0.00164797 0
0.895537 0.00311284 0
0.918257 0.00462348 0
0.943297 0.00564584 0
0.968399 0.00674449 0
0.993576 0.00796521 0
1 0.00952163 0
0 0.0956283 0.0320439
0.0126802 0.0941787 0.0305943
0.0419318 0.0923018 0.0287022
0.0701152 0.0909743 0.0273747
0.0974441 0.0896162 0.0260166
0.125063 0.0881971 0.0245975
0.153872 0.0865644 0.0229801
0.18468 0.0845197 0.0209354
0.217731 0.0817273 0.018143
0.253529 0.078233 0.0146487
0.292531 0.0741894 0.010605
0.33286 0.0695811 0.00598154
0.373983 0.0648051 0.00122072
0.414954 0.0601358 0
0.457038 0.0555276 0
0.499062 0.0507362 0
0.5411 0.0460365 0
0.582208 0.0416724 0
0.622385 0.0378119 0
0.660807 0.0345312 0
0.69723 0.0317693 0
0.73196 0.0295872 0
0.764858 0.027985 0
0.796155 0.0269474 0
0.826444 0.0265965 0
0.85388 0.0268864 0
0.878248 0.0281224 0
0.900954 0.0299229 0
0.92401 0.0317693 0
0.949432 0.0331731 0
0.97496 0.034699 0
1 0.0363317 0
1 0.0381018 0
0 0.117891 0.0323339
0.0132143 0.11667 0.0311131
0.0424811 0.114809 0.0292515
0.0704967 0.113313 0.0277562
0.0979629 0.112093 0.0265354
0.125811 0.110903 0.0253452
0.15465 0.1093 0.023743
0.185428 0.10724 0.0216831
0.218814 0.104784 0.0192264
0.254765 0.101427 0.0158694
0.293706 0.0973373 0.01178
0.334218 0.0928969 0.00735485
0.375769 0.0885481 0.00299077
0.416953 0.0841077 0
0.459068 0.0795148 0
0.501335 0.0749828 0
0.54377 0.0706493 0
0.58529 0.0667124 0
0.62565 0.0630503 0
0.664271 0.0599527 0
0.700984 0.057496 0
0.736049 0.0556191 0
0.769299 0.0543984 0
0.801083 0.0538338 0
0.831571 0.0536965 0
0.859358 0.0543374 0
0.884123 0.0559701 0
0.907271 0.0581979 0
0.930724 0.0604562 0
0.956542 0.0622416 0
0.982498 0.06421 0
1 0.0663005 0
1 0.0684977 0
0 0.140703 0.0323491
0.0130922 0.139345 0.0309911
0.0426642 0.137789 0.0294347
0.0707866 0.1364 0.0280461
0.0982986 0.135241 0.0268864
0.126131 0.134035 0.0256809
0.155337 0.132799 0.024445
0.186282 0.130892 0.0225376
0.219654 0.12842 0.0200656
0.255818 0.125277 0.0169223
0.295155 0.121584 0.0132296
0.335958 0.117433 0.00907912
0.377539 0.11313 0.00477607
0.419028 0.10898 0.00062562
0.461448 0.104692 0
0.504112 0.100542 0
0.546853 0.0965438 0
0.588571 0.0927901 0
0.629267 0.0894484 0
0.668238 0.086717 0
0.705303 0.0846113 0
0.740703 0.0830854 0
0.77435 0.0822461 0
0.806531 0.0820783 0
0.83743 0.0823529 0
0.865629 0.0833906 0
0.890806 0.0854353 0
0.914382 0.0881056 0
0.938293 0.0908217 0
0.964523 0.0930343 0
0.99086 0.0953689 0
1 0.0978866 0
1 0.100526 0
0 0.164157 0.0318914
0.0127413 0.162921 0.0306554
0.0422522 0.161288 0.0290227
0.0705272 0.160052 0.0277867
0.0984207 0.159274 0.0270085
0.126467 0.158267 0.0260014
0.155673 0.157031 0.0247654
0.186847 0.155367 0.0231022
0.220462 0.15314 0.0208743
0.257115 0.150484 0.0182193
0.29659 0.146929 0.0146639
0.337652 0.143038 0.0107729
0.379522 0.139025 0.00675975
0.421302 0.135164 0.00289921
0.46424 0.131395 0
0.507179 0.127535 0
0.550164 0.123751 0
0.592203 0.120348 0
0.633249 0.117357 0
0.672618 0.115007 0
0.710109 0.113313 0
0.745922 0.112215 0
0.779934 0.111742 0
0.812421 0.111879 0
0.843702 0.112535 0
0.872328 0.114 0
0.897887 0.116442 0
0.922026 0.119677 0
0.946349 0.122805 0
0.972976 0.125383 0
0.999619 0.128038 0
1 0.131014 0
1 0.133837 0.00157168
0 0.188434 0.0302586
0.0112917 0.187381 0.0292058
0.0411994 0.18616 0.0279698
0.0697185 0.185168 0.026978
0.0976425 0.184405 0.0262303
0.125948 0.183673 0.0254826
0.155428 0.182712 0.0245365
0.187137 0.181567 0.0233768
0.221057 0.179644 0.0214542
0.257771 0.177066 0.0188754
0.297551 0.1738 0.01561
0.338933 0.170245 0.0120546
0.38117 0.166583 0.00840772
0.423301 0.163088 0.00489815
0.466499 0.159579 0.00138857
0.50988 0.156146 0
0.553262 0.152773 0
0.595728 0.149783 0
0.637186 0.147204 0
0.676936 0.145251 0
0.71487 0.143999 0
0.751141 0.143343 0
0.785565 0.143297 0
0.818448 0.143816 0
0.850126 0.144884 0
0.879194 0.146792 0
0.905165 0.149645 0
0.929458 0.153017 0
0.95407 0.156435 0
0.980987 0.159319 0.00112917
1 0.162249 0.0040589
1 0.165225 0.00703441
1 0.168261 0.010071
0 0.213993 0.0280461
0.00950637 0.213352 0.0274052
0.0394903 0.212192 0.0262608
0.0682841 0.211475 0.0255436
0.0964981 0.211032 0.0250858
0.125093 0.210575 0.0246433
0.155062 0.210101 0.0241703
0.186892 0.209079 0.0231479
0.221149 0.207507 0.021561
0.258244 0.20528 0.0193484
0.29836 0.202365 0.0164187
0.340078 0.199145 0.0131991
0.382696 0.195865 0.00991836
0.425238 0.192767 0.00683604
0.468788 0.189624 0.00367742
0.512535 0.186557 0.000610361
0.55642 0.183688 0
0.599344 0.181155 0
0.641245 0.179019 0
0.681407 0.177478 0
0.719722 0.176608 0
0.75642 0.176379 0
0.791287 0.176776 0
0.824537 0.177676 0
0.856519 0.179034 0
0.885847 0.181201 0
0.912062 0.184298 0
0.936568 0.187884 0.00195315
0.961349 0.19147 0.00552377
0.988418 0.194507 0.00856031
1 0.197574 0.0116426
1 0.200656 0.014725
1 0.203769 0.0178378
0 0.24123 0.0252537
0.0068513 0.240726 0.0247501
0.0371099 0.239857 0.0238804
0.0662089 0.239445 0.0234684
0.0948043 0.239368 0.0233921
0.123919 0.239429 0.0234531
0.154055 0.239139 0.0231632
0.186175 0.238407 0.0224308
0.220798 0.237186 0.02121
0.258274 0.235355 0.019379
0.298817 0.232868 0.0168917
0.340948 0.230045 0.0140688
0.383963 0.227161 0.0111849
0.426917 0.224491 0.00851453
0.470878 0.221744 0.00576791
0.514992 0.219043 0.00306706
0.559167 0.21648 0.000503548
0.602487 0.214328 0
0.644816 0.212634 0
0.685405 0.211505 0
0.724056 0.210986 0
0.76109 0.211093 0
0.796155 0.211673 0
0.829648 0.212818 0
0.861814 0.214359 0
0.891325 0.216709 0.000732433
0.917662 0.219928 0.00395209
0.942306 0.223667 0.00769055
0.967178 0.227344 0.011368
0.994324 0.230442 0.0144656
1 0.233585 0.0176089
1 0.236728 0.0207523
1 0.239857 0.0238804
0 0.270054 0.0214237
0.00334173 0.269886 0.0212406
0.0339666 0.269383 0.020737
0.0634012 0.269306 0.0206607
0.0922866 0.269505 0.0208743
0.121813 0.270008 0.0213626
0.152377 0.270115 0.0214694
0.184924 0.26981 0.0211795
0.219928 0.268986 0.0203403
0.257816 0.267552 0.0189212
0.298787 0.265492 0.0168612
0.34139 0.263157 0.0145113
0.384817 0.260685 0.0120394
0.428168 0.258396 0.00976577
0.472511 0.256046 0.00741588
0.517082 0.253803 0.00515755
0.561654 0.251637 0.00299077
0.605295 0.24979 0.00115969
0.647883 0.248356 0
0.688731 0.247501 0
0.727611 0.247196 0
0.764752 0.24741 0
0.800031 0.248219 0
0.833661 0.2495 0.000854505
0.865965 0.251164 0.00251774
0.895537 0.25359 0.00495918
0.921981 0.256901 0.00827039
0.946685 0.2607 0.0120546
0.971603 0.264424 0.0157778
0.998749 0.267536 0.0188907
1 0.270665 0.0220188
1 0.273777 0.0251469
1 0.276905 0.028275
0 0.300786 0.016907
0 0.300938 0.0170748
0.0301823 0.300816 0.0169528
0.060029 0.301167 0.0172885
0.0893263 0.301793 0.0179141
0.119036 0.302449 0.0185855
0.150225 0.303197 0.0193332
0.18323 0.303349 0.0194858
0.218692 0.302968 0.0191043
0.256962 0.301946 0.0180819
0.298329 0.300282 0.0164034
0.34136 0.29836 0.0144808
0.385229 0.29633 0.0124514
0.428931 0.294408 0.010544
0.473594 0.292363 0.00848402
0.518395 0.290364 0.00648508
0.563226 0.288426 0.00456245
0.607065 0.286809 0.00292973
0.649836 0.285542 0.00166323
0.690822 0.284825 0.000946059
0.729839 0.284657 0.000793469
0.767102 0.284993 0.00111391
0.802457 0.285878 0.00199893
0.836164 0.287236 0.00335698
0.868513 0.28896 0.00508125
0.898116 0.291402 0.00753796
0.924559 0.294713 0.0108492
0.949248 0.298497 0.0146181
0.974151 0.302205 0.0183261
1 0.305333 0.0214542
1 0.308507 0.0246281
1 0.311757 0.0278782
1 0.315038 0.0311742
0 0.33315 0.0128176
0 0.333715 0.0133974
0.0268864 0.333989 0.0136721
0.0571756 0.334752 0.014435
0.0869459 0.335851 0.0155184
0.117067 0.336934 0.0166171
0.148425 0.337835 0.0175174
0.181811 0.338399 0.0180667
0.217716 0.338445 0.0181277
0.256413 0.337835 0.0175174
0.298116 0.336507 0.0161898
0.341405 0.334859 0.0145418
0.385519 0.333074 0.0127565
0.42948 0.331395 0.0110781
0.474311 0.329534 0.00920119
0.51928 0.327688 0.00737011
0.564248 0.325902 0.0055848
0.608225 0.324422 0.00408942
0.651087 0.323247 0.00291447
0.692149 0.322591 0.00227359
0.731243 0.322515 0.00218204
0.768551 0.322881 0.00256352
0.803922 0.323781 0.0034638
0.837613 0.325124 0.00480659
0.869947 0.326833 0.0065156
0.899535 0.329274 0.00895705
0.926009 0.332616 0.0122988
0.950774 0.336477 0.016144
0.97583 0.340322 0.0200046
1 0.343587 0.02327
1 0.346899 0.0265812
1 0.350256 0.0299229
1 0.353628 0.0333104
0 0.367178 0.00943008
0 0.368215 0.0104677
0.0243687 0.368902 0.0111543
0.0550393 0.370047 0.0122988
0.0852216 0.371542 0.0137942
0.115801 0.373098 0.0153353
0.147539 0.37438 0.0166323
0.181247 0.37525 0.0175021
0.217411 0.37557 0.0178225
0.256352 0.375204 0.0174563
0.298268 0.37409 0.0163424
0.341741 0.37261 0.0148623
0.386007 0.370993 0.0132448
0.430106 0.369451 0.0117037
0.475059 0.367712 0.00996414
0.520119 0.365957 0.00820935
0.565164 0.364248 0.00650034
0.609201 0.362814 0.005066
0.652094 0.361685 0.00393683
0.693172 0.361044 0.00329595
0.732235 0.360937 0.00318914
0.769528 0.361303 0.00355535
0.804898 0.362188 0.00444038
0.838636 0.363592 0.00584421
0.871077 0.365393 0.00764477
0.900832 0.368002 0.0102388
0.927428 0.371466 0.0137179
0.952316 0.375433 0.0176852
0.977462 0.379385 0.0216373
1 0.382757 0.0250095
1 0.386145 0.028397
1 0.389563 0.0318151
1 0.392996 0.0352483
0 0.402609 0.00749218
0 0.404074 0.00895705
0.0233005 0.405188 0.010071
0.0543221 0.406699 0.0115816
0.0847944 0.408484 0.0133669
0.115618 0.410285 0.0151675
0.147601 0.411826 0.0167086
0.181491 0.412863 0.0177462
0.217838 0.413367 0.0182498
0.256931 0.413153 0.0180362
0.29897 0.412161 0.0170443
0.342458 0.410712 0.0155947
0.386908 0.409262 0.0141451
0.431083 0.407797 0.0126802
0.47602 0.406027 0.0109102
0.521019 0.404227 0.00910964
0.566217 0.402655 0.00755322
0.610224 0.401221 0.00610361
0.653056 0.400015 0.00489815
0.694087 0.399329 0.00421149
0.733349 0.399405 0.00428778
0.770764 0.399893 0.00477607
0.806241 0.4009 0.00578317
0.840024 0.402335 0.00723278
0.872694 0.404379 0.00926223
0.902525 0.407065 0.0119478
0.929137 0.410544 0.0154269
0.954009 0.414496 0.0193942
0.9794 0.418692 0.0235752
1 0.422019 0.0269017
1 0.425361 0.0302434
1 0.428717 0.0336004
1 0.432319 0.0372015
0 0.439231 0.00637827
0 0.440955 0.00810254
0.0227054 0.442329 0.00947585
0.0539712 0.444068 0.0112306
0.0846113 0.446036 0.0131838
0.115602 0.44799 0.0151369
0.147723 0.449683 0.0168307
0.181765 0.450858 0.0180209
0.218189 0.451438 0.0186007
0.257359 0.451301 0.0184634
0.299474 0.450401 0.0175479
0.343099 0.449073 0.0162203
0.387457 0.447532 0.0146944
0.431617 0.446067 0.0132143
0.476616 0.444358 0.0115053
0.521675 0.442618 0.00976577
0.566751 0.440925 0.00808728
0.610864 0.439582 0.00672923
0.65388 0.438575 0.00572213
0.695109 0.438087 0.00523384
0.734371 0.438163 0.0053254
0.771893 0.438758 0.0059205
0.807523 0.439918 0.00706493
0.841474 0.44152 0.00866712
0.874098 0.443503 0.0106661
0.90399 0.44625 0.0134127
0.930739 0.449866 0.0170138
0.955718 0.453941 0.021088
0.980941 0.457954 0.0251164
1 0.461372 0.0285191
1 0.464775 0.0319371
1 0.468177 0.0353399
1 0.471565 0.0387274
0 0.477195 0.00564584
0 0.479103 0.00753796
0.0222782 0.480613 0.0090486
0.0536965 0.482506 0.010956
0.0844587 0.484596 0.0130312
0.115511 0.486625 0.0150607
0.147723 0.48838 0.0168307
0.181827 0.489632 0.0180819
0.218265 0.490242 0.018677
0.25745 0.49012 0.018555
0.299565 0.489189 0.0176242
0.34316 0.487846 0.0162814
0.387518 0.48632 0.0147555
0.431724 0.484886 0.0133364
0.476844 0.483299 0.0117342
0.522057 0.481697 0.0101472
0.567269 0.480156 0.00859083
0.61149 0.47892 0.00735485
0.654627 0.478019 0.00645457
0.695949 0.477623 0.00607309
0.735286 0.477791 0.00622568
0.772869 0.478447 0.00688182
0.80853 0.479637 0.00808728
0.842542 0.481285 0.00973526
0.875181 0.483299 0.0117494
0.905074 0.486046 0.0144961
0.931807 0.489662 0.0180972
0.956771 0.493706 0.0221561
0.981964 0.497704 0.0261387
1 0.50106 0.0294957
1 0.504387 0.0328374
1 0.507729 0.0361639
1 0.511009 0.0394598
0 0.515496 0.00515755
0 0.517449 0.0071107
0.0220645 0.519173 0.00883497
0.0534676 0.521065 0.0107271
0.0842298 0.52314 0.0128023
0.115312 0.525185 0.0148623
0.147616 0.527047 0.0167239
0.181659 0.528237 0.0178988
0.218036 0.528786 0.0184482
0.257221 0.528664 0.0183261
0.29955 0.527962 0.0176242
0.343221 0.526696 0.0163577
0.387671 0.525231 0.0148928
0.431983 0.523919 0.0135805
0.477317 0.522545 0.0122225
0.52256 0.520989 0.0106508
0.567819 0.519493 0.00915541
0.612116 0.518318 0.00798047
0.655344 0.51751 0.007187
0.696666 0.517128 0.00679026
0.736049 0.517327 0.00698863
0.773648 0.517998 0.00766003
0.809308 0.519188 0.00885023
0.843305 0.520821 0.0104982
0.875914 0.52282 0.0124819
0.905776 0.525521 0.0151827
0.932448 0.529061 0.0187381
0.957336 0.533059 0.0227207
0.982437 0.53695 0.026627
1 0.540215 0.0298772
1 0.543496 0.0331579
1 0.54667 0.036347
1 0.549813 0.0394903
0 0.554269 0.0049897
0 0.556313 0.00703441
0.0218662 0.557916 0.00863661
0.0533303 0.559869 0.0105898
0.084123 0.56199 0.0127108
0.115206 0.564034 0.0147402
0.147433 0.56582 0.0165408
0.181613 0.567147 0.0178683
0.218189 0.567895 0.0186007
0.257527 0.567926 0.0186465
0.299825 0.567193 0.0178988
0.343664 0.566079 0.0168002
0.388281 0.564797 0.0155184
0.4327 0.563592 0.0142977
0.477989 0.562173 0.0128786
0.523369 0.560739 0.0114443
0.568704 0.559319 0.0100404
0.613031 0.558175 0.00889601
0.656214 0.557336 0.00805676
0.697581 0.556985 0.00770581
0.736934 0.557168 0.00788891
0.774502 0.557809 0.00852979
0.810132 0.558953 0.00967422
0.844053 0.56054 0.0112459
0.876585 0.562448 0.0131533
0.906355 0.565057 0.0157778
0.932937 0.568505 0.0192111
0.957702 0.572366 0.0230869
0.982666 0.576135 0.0268406
1 0.579248 0.0299687
1 0.582315 0.0330358
1 0.585336 0.0360418
1 0.588296 0.0390021
0 0.592905 0.00543221
0 0.594934 0.00746166
0.0223087 0.596551 0.00907912
0.0538186 0.598566 0.0110933
0.0847334 0.600793 0.0133211
0.115969 0.602991 0.0155184
0.148348 0.604913 0.0174411
0.182635 0.606363 0.0188907
0.219318 0.607202 0.0197299
0.258747 0.607324 0.019852
0.301122 0.606668 0.0191958
0.345022 0.605615 0.018143
0.389685 0.604395 0.0169223
0.43415 0.60322 0.0157473
0.479438 0.601801 0.0143282
0.524819 0.600381 0.0129091
0.570153 0.598962 0.01149
0.61445 0.597803 0.0103304
0.657618 0.596918 0.00944533
0.698909 0.596521 0.0090486
0.738216 0.596628 0.00915541
0.775692 0.597192 0.00972
0.811231 0.598245 0.0107729
0.845045 0.59971 0.0122377
0.877455 0.601495 0.014023
0.907073 0.603967 0.016495
0.933501 0.607263 0.019791
0.958114 0.610971 0.0234836
0.982895 0.614542 0.0270695
1 0.617456 0.029984
1 0.620325 0.0328527
1 0.623117 0.0356451
1 0.625849 0.0383764
0 0.631189 0.00616464
0 0.633356 0.00833143
0.0233158 0.635111 0.0100862
0.054963 0.637247 0.0122225
0.0859846 0.639597 0.0145724
0.117327 0.641886 0.0168612
0.149783 0.6439 0.0188754
0.184146 0.645426 0.0204013
0.220874 0.646311 0.0212863
0.260349 0.646479 0.0214694
0.30277 0.645853 0.0208438
0.34667 0.644831 0.0198062
0.391333 0.643595 0.0185702
0.435782 0.642405 0.01738
0.481056 0.64097 0.0159457
0.52639 0.639506 0.0144808
0.571664 0.63801 0.0129854
0.615885 0.636774 0.0117494
0.658961 0.635828 0.0108034
0.70016 0.635309 0.0102998
0.739345 0.635325 0.0102998
0.776699 0.635752 0.0107271
0.812085 0.636652 0.0116274
0.845747 0.637964 0.0129397
0.878111 0.639704 0.0146792
0.907591 0.642023 0.0169985
0.933852 0.645167 0.0201419
0.958312 0.648722 0.0236973
0.982879 0.652079 0.0270542
1 0.654749 0.0297246
1 0.657343 0.0323186
1 0.659876 0.0348516
1 0.662333 0.0373083
0 0.669749 0.0087129
0 0.672007 0.0109865
0.0260777 0.673869 0.0128481
0.0578012 0.676097 0.0150607
0.0888838 0.678492 0.0174716
0.120272 0.680842 0.0198062
0.152773 0.682902 0.0218662
0.187152 0.684443 0.0234073
0.223896 0.685344 0.0243076
0.263371 0.685512 0.0244755
0.30576 0.684871 0.0238346
0.349645 0.683803 0.0227665
0.394247 0.682506 0.0214847
0.438636 0.681254 0.0202335
0.483833 0.679744 0.0187228
0.529076 0.678187 0.0171664
0.574243 0.6766 0.0155642
0.618341 0.675242 0.0142214
0.66128 0.674144 0.0131228
0.702342 0.673503 0.0124666
0.74136 0.673335 0.012314
0.778546 0.673594 0.0125582
0.813733 0.674296 0.0132753
0.847181 0.67541 0.014374
0.87921 0.676814 0.0157778
0.908431 0.678874 0.0178378
0.934386 0.681712 0.020676
0.958618 0.685023 0.0239872
0.983032 0.688243 0.0272221
1 0.690684 0.0296635
1 0.693004 0.0319829
1 0.695262 0.034226
1 0.697444 0.0364233
0 0.708202 0.0125887
0 0.710536 0.0149081
0.030045 0.712444 0.0168154
0.0618143 0.714687 0.0190738
0.0928359 0.717037 0.0214237
0.1243 0.719463 0.0238499
0.156786 0.721508 0.0258946
0.191104 0.722988 0.0273594
0.227741 0.723781 0.0281529
0.267277 0.723995 0.0283818
0.309606 0.723293 0.0276799
0.353384 0.722118 0.0265049
0.397864 0.720699 0.0250858
0.442176 0.719402 0.0237736
0.487251 0.717769 0.0221408
0.532357 0.71606 0.0204471
0.577371 0.714321 0.0187076
0.621317 0.712795 0.0171817
0.664073 0.711513 0.0158999
0.704921 0.710674 0.0150607
0.74374 0.710307 0.0146792
0.780697 0.710338 0.014725
0.815656 0.710811 0.015198
0.848844 0.71165 0.0160372
0.880613 0.712795 0.0171817
0.909545 0.71458 0.018967
0.935241 0.717144 0.0215305
0.959213 0.720211 0.0245823
0.983368 0.723156 0.0275425
1 0.725307 0.0296788
1 0.727352 0.0317388
1 0.72932 0.0337072
1 0.731212 0.0355993
0 0.746075 0.0175479
0.00198367 0.748409 0.0198978
0.0350195 0.750317 0.0217899
0.0667735 0.752544 0.024033
0.0978408 0.754955 0.0264286
0.129183 0.757259 0.0287327
0.161608 0.759228 0.0307164
0.195911 0.760678 0.032166
0.232532 0.761456 0.0329442
0.271839 0.761471 0.0329442
0.314046 0.760632 0.0321202
0.357717 0.759365 0.0308385
0.40209 0.757839 0.0293126
0.446189 0.756313 0.0278019
0.491096 0.754513 0.0259861
0.536019 0.752621 0.024094
0.580835 0.750683 0.0221714
0.624628 0.74902 0.0204929
0.667353 0.747707 0.0191806
0.707958 0.746609 0.0180819
0.746502 0.745968 0.0174563
0.7832 0.745739 0.0172274
0.817884 0.745953 0.0174258
0.850797 0.746517 0.0179904
0.882277 0.747372 0.0188449
0.910948 0.748882 0.0203708
0.93637 0.751186 0.0226596
0.96022 0.754116 0.0255894
0.983948 0.756634 0.0281224
1 0.75848 0.0299687
1 0.760266 0.031754
1 0.761975 0.0334478
1 0.763592 0.0350805
0 0.78378 0.0238041
0.00820935 0.786084 0.0261082
0.0411841 0.78793 0.0279545
0.0728771 0.790097 0.0301366
0.103868 0.792432 0.0324559
0.135134 0.794644 0.0346685
0.167437 0.796506 0.0365454
0.201617 0.797833 0.0378729
0.238102 0.798474 0.0385138
0.277256 0.798337 0.0383612
0.31931 0.797345 0.0373693
0.362799 0.795895 0.0359197
0.406973 0.794171 0.0341955
0.450874 0.792447 0.0324712
0.495552 0.790417 0.030457
0.540246 0.788296 0.0283207
0.584802 0.786099 0.0261234
0.62826 0.7841 0.0241398
0.670573 0.782376 0.0224002
0.711131 0.781231 0.0212558
0.749401 0.780316 0.0203403
0.785809 0.779797 0.0198367
0.820218 0.779736 0.0197604
0.852872 0.780026 0.0200656
0.884077 0.780606 0.0206455
0.912459 0.781842 0.0218662
0.937804 0.784054 0.0240787
0.961181 0.786526 0.0265507
0.984634 0.788785 0.028809
1 0.790356 0.0303807
1 0.791836 0.0318761
1 0.793286 0.0333104
1 0.794888 0.0349279
0 0.820584 0.0310979
0.0153811 0.822766 0.0332799
0.0482185 0.824475 0.0349889
0.0800183 0.826764 0.0372778
0.110872 0.828946 0.0394598
0.141985 0.831006 0.0415198
0.174151 0.832731 0.0432441
0.208194 0.833936 0.0444495
0.244495 0.834379 0.0449073
0.283452 0.834043 0.0445563
0.325292 0.832853 0.0433661
0.368566 0.831174 0.0416876
0.412497 0.829206 0.0397192
0.456138 0.827222 0.0377356
0.500557 0.824933 0.0354467
0.544976 0.822538 0.0330663
0.589258 0.820066 0.0305943
0.632441 0.817792 0.0283055
0.674556 0.815869 0.0263981
0.714763 0.814359 0.0248875
0.752758 0.813184 0.0236973
0.788891 0.81239 0.0229038
0.823011 0.812039 0.0225528
0.855375 0.812055 0.0225834
0.88632 0.812375 0.0228885
0.914687 0.813596 0.0241093
0.939544 0.81532 0.0258335
0.962585 0.817441 0.0279545
0.985763 0.819425 0.0299535
1 0.820737 0.0312505
1 0.822217 0.0327459
1 0.823362 0.0338903
1 0.824445 0.0349584
0 0.856718 0.0391394
0.023331 0.858808 0.0412299
0.0560616 0.860426 0.0428321
0.08748 0.862318 0.0447395
0.118181 0.864347 0.0467536
0.149096 0.866224 0.0486458
0.181048 0.867735 0.0501564
0.214847 0.868681 0.0511025
0.251148 0.869139 0.0515602
