public/filters/travel/FHT01.cube
TITLE "Generated by Resolve"
LUT_3D_SIZE 5
0 0.00714122 0.0282902
0.213367 0 0.0137636
0.534722 0 0
0.813611 0 0
1 0 0
0 0.188434 0.0302586
0.221057 0.179644 0.0214542
0.553262 0.152773 0
0.850126 0.144884 0
1 0.168261 0.010071
0 0.439231 0.00637827
0.218189 0.451438 0.0186007
0.566751 0.440925 0.00808728
0.874098 0.443503 0.0106661
1 0.471565 0.0387274
0 0.746075 0.0175479
0.232532 0.761456 0.0329442
0.580835 0.750683 0.0221714
0.882277 0.747372 0.0188449
1 0.763592 0.0350805
0.0423743 1 0.0893568
0.290867 1 0.0912795
0.623163 0.994751 0.0644846
0.908751 0.975586 0.0453193
1 0.973724 0.0434577
0 0.00932326 0.178592
0.215976 0 0.164508
0.537072 0 0.126528
0.816663 0 0.101366
1 0 0.104829
0 0.191989 0.181933
0.226322 0.184909 0.174853
0.560891 0.160403 0.150347
0.860426 0.155169 0.145113
1 0.17969 0.169635
0 0.450248 0.165515
0.229786 0.463035 0.178317
0.578683 0.452873 0.168154
0.886473 0.455894 0.171176
1 0.483696 0.198978
0 0.758556 0.178164
0.244633 0.773556 0.193164
0.591684 0.761532 0.18114
0.891386 0.756481 0.176074
1 0.770901 0.190509
0.0505531 1 0.245655
0.297536 1 0.246067
0.628367 0.999969 0.217823
0.912062 0.978882 0.19675
1 0.973953 0.191806
0 0.00556954 0.396872
0.212985 0 0.383551
0.534234 0 0.345724
0.814847 0 0.321569
1 0 0.326879
0 0.190768 0.402731
0.2271 0.185687 0.397665
0.564431 0.163943 0.375921
0.866178 0.160937 0.3729
1 0.186206 0.398184
0 0.45626 0.393561
0.236271 0.469535 0.406851
0.585718 0.459907 0.397208
0.893782 0.463203 0.400504
1 0.490501 0.427817
0 0.765652 0.407294
0.250813 0.779751 0.421393
0.596368 0.766217 0.407858
0.894347 0.759441 0.401068
1 0.77229 0.413931
0.0530556 1 0.470192
0.298314 1 0.468879
0.627817 0.99942 0.439307
0.908721 0.975555 0.415442
1 0.968582 0.408469
0 0.00030518 0.650095
0.20734 0 0.636393
0.52903 0 0.598993
0.810941 0 0.57615
1 0 0.583322
0 0.187564 0.65803
0.226154 0.184756 0.655222
0.565957 0.165469 0.635935
0.869413 0.164172 0.634623
1 0.189822 0.660288
0 0.459739 0.655543
0.239902 0.473167 0.668971
0.590051 0.464225 0.660029
0.898116 0.467536 0.663325
1 0.494072 0.68986
0 0.769802 0.669917
0.253941 0.782864 0.682994
0.598047 0.76791 0.668025
0.894194 0.759274 0.659403
1 0.770474 0.670588
0.0523384 1 0.727962
0.295949 1 0.725002
0.624247 0.995834 0.694209
0.902037 0.968872 0.667247
1 0.960311 0.658686
0 0 0.861265
0.205005 0 0.847196
0.527413 0 0.810529
0.810987 0 0.789334
1 0 0.798733
0 0.188113 0.871717
0.22916 0.187747 0.871351
0.571588 0.171099 0.854704
0.876173 0.170916 0.85452
1 0.196719 0.880323
0 0.466651 0.875593
0.247135 0.4804 0.889342
0.597742 0.471931 0.880873
0.905531 0.474952 0.883894
1 0.500603 0.909545
0.00143435 0.776944 0.890211
0.260075 0.788998 0.902266
0.602441 0.77229 0.885557
0.896773 0.761868 0.875135
1 0.77142 0.884688
0.0542763 1 0.943038
0.296452 1 0.938643
0.622751 0.994339 0.905867
0.897612 0.964446 0.875959
1 0.954711 0.866239
