public/filters/travel/FHT01.cube
TITLE "Generated by Resolve"
LUT_3D_SIZE 9
0 0.00714122 0.0282902
0.093492 0.000915541 0.0220645
0.213367 0 0.0137636
0.369192 0 0
0.534722 0 0
0.688121 0 0
0.813611 0 0
0.906752 0 0
1 0 0
0 0.0956283 0.0320439
0.0974441 0.0896162 0.0260166
0.217731 0.0817273 0.018143
0.373983 0.0648051 0.00122072
0.5411 0.0460365 0
0.69723 0.0317693 0
0.826444 0.0265965 0
0.92401 0.0317693 0
1 0.0381018 0
0 0.188434 0.0302586
0.0976425 0.184405 0.0262303
0.221057 0.179644 0.0214542
0.38117 0.166583 0.00840772
0.553262 0.152773 0
0.71487 0.143999 0
0.850126 0.144884 0
0.95407 0.156435 0
1 0.168261 0.010071
0 0.300786 0.016907
0.0893263 0.301793 0.0179141
0.218692 0.302968 0.0191043
0.385229 0.29633 0.0124514
0.563226 0.288426 0.00456245
0.729839 0.284657 0.000793469
0.868513 0.28896 0.00508125
0.974151 0.302205 0.0183261
1 0.315038 0.0311742
0 0.439231 0.00637827
0.0846113 0.446036 0.0131838
0.218189 0.451438 0.0186007
0.387457 0.447532 0.0146944
0.566751 0.440925 0.00808728
0.734371 0.438163 0.0053254
0.874098 0.443503 0.0106661
0.980941 0.457954 0.0251164
1 0.471565 0.0387274
0 0.592905 0.00543221
0.0847334 0.600793 0.0133211
0.219318 0.607202 0.0197299
0.389685 0.604395 0.0169223
0.570153 0.598962 0.01149
0.738216 0.596628 0.00915541
0.877455 0.601495 0.014023
0.982895 0.614542 0.0270695
1 0.625849 0.0383764
0 0.746075 0.0175479
0.0978408 0.754955 0.0264286
0.232532 0.761456 0.0329442
0.40209 0.757839 0.0293126
0.580835 0.750683 0.0221714
0.746502 0.745968 0.0174563
0.882277 0.747372 0.0188449
0.983948 0.756634 0.0281224
1 0.763592 0.0350805
0.00077821 0.892073 0.0477607
0.125994 0.898894 0.0545815
0.257725 0.902434 0.0581369
0.423835 0.895369 0.0510567
0.598413 0.884047 0.0397498
0.759655 0.874907 0.0306096
0.891295 0.872175 0.027863
0.988647 0.877134 0.0328222
1 0.880323 0.0360113
0.0423743 1 0.0893568
0.163302 1 0.0918746
0.290867 1 0.0912795
0.452567 1 0.0798047
0.623163 0.994751 0.0644846
0.780575 0.981796 0.0515297
0.908751 0.975586 0.0453193
1 0.975982 0.0457313
1 0.973724 0.0434577
0 0.00851453 0.0997787
0.0942397 0.00167849 0.0929427
0.214969 0 0.0854963
0.370626 0 0.0679789
0.536171 0 0.0476234
0.689693 0 0.0307469
0.815366 0 0.0220645
0.908843 0 0.0231327
1 0 0.0246738
0 0.0970779 0.103609
0.098909 0.0910964 0.097612
0.219348 0.08336 0.0898756
0.375845 0.0666819 0.0731975
0.543343 0.0482795 0.0547951
0.699947 0.0344854 0.0410163
0.829496 0.0296483 0.0361791
0.927886 0.0356603 0.0421912
1 0.0426642 0.0491951
0 0.190433 0.102373
0.100053 0.186816 0.0987564
0.223911 0.182513 0.0944533
0.384619 0.170031 0.0819715
0.557214 0.156725 0.0686656
0.719692 0.148821 0.0607462
0.855619 0.150362 0.0623026
0.95996 0.162325 0.0742657
1 0.17438 0.0863203
0 0.304463 0.0906996
0.0936751 0.306127 0.0923781
0.223468 0.307759 0.0939956
0.3906 0.301701 0.087953
0.568933 0.294148 0.0803845
0.735729 0.290562 0.0767987
0.874464 0.294896 0.0811475
0.980117 0.308171 0.0944228
1 0.321218 0.107469
0 0.445029 0.0822919
0.0906844 0.45211 0.0893873
0.224384 0.457649 0.0949111
0.393668 0.453742 0.0910201
0.573083 0.447257 0.084535
0.740887 0.444678 0.0819562
0.880705 0.450111 0.0873884
0.987533 0.464561 0.101839
1 0.47808 0.115343
0 0.59884 0.0814832
0.0908827 0.606943 0.0895857
0.225605 0.613489 0.0961318
0.396033 0.610742 0.0933852
0.576471 0.60528 0.0879225
0.744396 0.602808 0.0854658
0.883421 0.607462 0.0901045
0.988769 0.620417 0.103059
1 0.631357 0.114015
0 0.752682 0.0942855
0.104387 0.761501 0.10309
0.238911 0.767834 0.109438
0.408209 0.763958 0.105562
0.586618 0.756466 0.0980697
0.751659 0.751125 0.0927291
0.88719 0.752285 0.0938735
0.988357 0.761059 0.102647
1 0.767605 0.109194
0.00679026 0.89807 0.123888
0.131624 0.904524 0.130327
0.262913 0.907622 0.13344
0.42858 0.900114 0.125933
0.602686 0.888319 0.114137
0.763516 0.878767 0.104585
0.894713 0.875578 0.101396
0.991699 0.880171 0.105989
1 0.88307 0.108888
0.0467842 1 0.163882
0.167422 1 0.166125
0.29456 1 0.165103
0.455863 1 0.153216
0.626093 0.997681 0.137545
0.7832 0.984421 0.124269
0.910918 0.977752 0.117601
1 0.977218 0.117082
1 0.974182 0.114031
0 0.00932326 0.178592
0.0953384 0.00276188 0.172045
0.215976 0 0.164508
0.371511 0 0.146868
0.537072 0 0.126528
0.69073 0 0.109804
0.816663 0 0.101366
0.910506 0 0.102815
1 0 0.104829
0 0.0979477 0.182483
0.099855 0.0920424 0.176562
0.220478 0.0844892 0.169009
0.377264 0.0680858 0.152621
0.545174 0.0500954 0.13463
0.702266 0.0368048 0.12134
0.832364 0.032517 0.117052
0.931426 0.0392004 0.12372
1 0.0469062 0.131441
0 0.191989 0.181933
0.102068 0.18883 0.178775
0.226322 0.184909 0.174853
0.387717 0.173129 0.163073
0.560891 0.160403 0.150347
0.723873 0.153002 0.142947
0.860426 0.155169 0.145113
0.965103 0.167468 0.157412
1 0.17969 0.169635
0 0.30782 0.172076
0.097734 0.310185 0.174441
0.228199 0.312474 0.17673
0.395819 0.30692 0.171176
0.574426 0.299641 0.163897
0.74136 0.296193 0.160433
0.880095 0.300542 0.164782
0.98587 0.313924 0.17818
1 0.327169 0.191409
0 0.450248 0.165515
0.0960403 0.457481 0.172747
0.229786 0.463035 0.178317
0.399054 0.459129 0.174411
0.578683 0.452873 0.168154
0.746609 0.450401 0.165682
0.886473 0.455894 0.171176
0.993286 0.470314 0.185595
1 0.483696 0.198978
0 0.604517 0.165164
0.0967727 0.612833 0.17348
0.231617 0.619501 0.180148
0.402075 0.616785 0.177432
0.582437 0.611246 0.171893
0.75021 0.608637 0.169284
0.888991 0.613031 0.173678
0.993774 0.625437 0.186084
1 0.636149 0.196796
0 0.758556 0.178164
0.11017 0.767285 0.186877
0.244633 0.773556 0.193164
0.413657 0.769421 0.189029
0.591684 0.761532 0.18114
0.756237 0.755703 0.175311
0.891386 0.756481 0.176074
0.991897 0.764599 0.184192
1 0.770901 0.190509
0.0118563 0.903136 0.206958
0.136553 0.909438 0.21326
0.267369 0.912093 0.215915
0.432593 0.904128 0.20795
0.606256 0.891905 0.195712
0.766659 0.88191 0.185733
0.897429 0.878309 0.182132
0.994064 0.882551 0.186374
1 0.88513 0.188952
0.0505531 1 0.245655
0.17084 1 0.247547
0.297536 1 0.246067
0.458457 1 0.233814
0.628367 0.999969 0.217823
0.785168 0.986374 0.204242
0.912062 0.978882 0.19675
1 0.977722 0.19559
1 0.973953 0.191806
0 0.00857557 0.277272
0.0948501 0.00228885 0.27097
0.21532 0 0.263279
0.37084 0 0.245609
0.536461 0 0.225345
0.690303 0 0.208804
0.816526 0 0.200641
0.91078 0 0.202487
1 0 0.20499
0 0.0972915 0.281239
0.0993057 0.0914931 0.275441
0.220142 0.0841382 0.268086
0.377264 0.068101 0.252049
0.545632 0.0505531 0.234501
0.703212 0.0377661 0.221714
0.83389 0.0340429 0.21799
0.933379 0.0411536 0.225101
1 0.049546 0.233494
0 0.192126 0.281498
0.102708 0.189471 0.278828
0.22742 0.186007 0.27538
0.389517 0.174929 0.264286
0.563394 0.162905 0.252262
0.727031 0.156161 0.245518
0.864073 0.158831 0.248188
0.969039 0.171405 0.260761
1 0.18378 0.273136
0 0.309621 0.273289
0.100374 0.312825 0.276493
0.231586 0.315877 0.279545
0.399603 0.310704 0.274372
0.578439 0.303639 0.267308
0.745418 0.300252 0.26392
0.884138 0.304585 0.268254
0.990143 0.318196 0.281865
1 0.331533 0.295201
0 0.453971 0.268666
0.100023 0.461448 0.276143
0.23386 0.467124 0.281819
0.403143 0.463218 0.277913
0.582986 0.45716 0.271855
0.751064 0.454871 0.269566
0.890974 0.46038 0.275074
0.997726 0.474739 0.289433
1 0.487984 0.302678
0 0.608743 0.268803
0.101183 0.617227 0.277302
0.236103 0.623987 0.284062
0.406561 0.621271 0.281331
0.586831 0.615625 0.2757
0.754406 0.612833 0.272892
0.892897 0.616938 0.276997
0.997314 0.628962 0.289036
1 0.639002 0.299062
0 0.762905 0.281926
0.114382 0.771481 0.290501
0.248493 0.777417 0.296437
0.417197 0.772946 0.291966
0.595071 0.76492 0.28394
0.759167 0.758633 0.277653
0.893874 0.758953 0.277974
0.993927 0.766629 0.285649
1 0.772519 0.291539
0.0155184 0.906798 0.310033
0.139513 0.912398 0.315633
0.270161 0.91487 0.318105
0.434669 0.906203 0.309438
0.608133 0.893767 0.297002
0.768093 0.883345 0.28658
0.898497 0.879362 0.282597
0.994797 0.883284 0.286519
1 0.885557 0.288792
0.0527352 1 0.34725
0.172564 1 0.348684
0.298817 1 0.346761
0.459373 1 0.334142
0.628992 1 0.317861
0.785489 0.986709 0.303975
0.911284 0.978119 0.295399
1 0.976501 0.293767
1 0.972137 0.289418
0 0.00556954 0.396872
0.092668 9.15541e-05 0.391394
0.212985 0 0.383551
0.368505 0 0.365896
0.534234 0 0.345724
0.688289 0 0.329397
0.814847 0 0.321569
0.909545 0 0.323873
1 0 0.326879
0 0.0949721 0.401541
0.0971542 0.0893263 0.395895
0.218219 0.0822309 0.3888
0.375723 0.0665599 0.373114
0.544579 0.0495003 0.356069
0.702495 0.0370336 0.343603
0.833997 0.0341497 0.340719
0.934173 0.0419471 0.348516
1 0.0510109 0.357565
0 0.190768 0.402731
0.101671 0.188434 0.400412
0.2271 0.185687 0.397665
0.389624 0.175036 0.387015
0.564431 0.163943 0.375921
0.72874 0.157885 0.369848
0.866178 0.160937 0.3729
0.971374 0.173739 0.385702
1 0.186206 0.398184
0 0.310185 0.39646
0.101457 0.313924 0.400198
0.233188 0.317464 0.403754
0.401526 0.312627 0.398917
0.580545 0.30576 0.392035
0.747631 0.302449 0.388724
0.886351 0.306798 0.393072
0.992554 0.320607 0.406882
1 0.334127 0.420401
0 0.45626 0.393561
0.102434 0.463874 0.401175
0.236271 0.469535 0.406851
0.405692 0.465766 0.403082
0.585718 0.459907 0.397208
0.753887 0.457679 0.394995
0.893782 0.463203 0.400504
1 0.477455 0.414771
1 0.490501 0.427817
0 0.611109 0.39379
0.103685 0.61973 0.402411
0.238682 0.626566 0.409247
0.409079 0.623789 0.40647
0.589212 0.618021 0.400702
0.756588 0.615 0.397681
0.89482 0.61886 0.401541
0.999039 0.630686 0.413367
1 0.640269 0.42295
0 0.765652 0.407294
0.116976 0.774075 0.415717
0.250813 0.779751 0.421393
0.419181 0.774929 0.416571
0.596368 0.766217 0.407858
0.760281 0.759762 0.401389
0.894347 0.759441 0.401068
0.994141 0.766842 0.408469
1 0.77229 0.413931
0.0173495 0.908629 0.434485
0.140902 0.913787 0.439643
0.271107 0.915816 0.441672
0.435172 0.906706 0.432563
0.608194 0.893843 0.419684
0.767712 0.882963 0.40882
0.897749 0.878614 0.404471
0.993759 0.882246 0.408087
1 0.88423 0.410071
0.0530556 1 0.470192
0.172473 1 0.471214
0.298314 1 0.468879
0.458503 1 0.455894
0.627817 0.99942 0.439307
0.783841 0.985061 0.424949
0.908721 0.975555 0.415442
0.998749 0.97319 0.413077
1 0.968582 0.408469
0 0.00297551 0.523415
0.090074 0 0.517952
0.210163 0 0.50988
0.365713 0 0.492241
0.531594 0 0.472236
0.685893 0 0.456138
0.812818 0 0.448692
0.908003 0 0.451484
1 0 0.45481
0 0.0922255 0.527932
0.0945907 0.0867628 0.522469
0.215961 0.0799573 0.515663
0.373877 0.0646982 0.500404
0.543206 0.048127 0.483833
0.701686 0.0362249 0.471931
0.833738 0.0338903 0.469596
0.934737 0.0425116 0.478218
1 0.0522316 0.487938
0 0.189105 0.530205
0.100435 0.187198 0.528313
0.226505 0.185092 0.526207
0.3897 0.175113 0.516228
0.564935 0.164446 0.505562
0.729854 0.158984 0.500099
0.867628 0.162371 0.503487
0.973007 0.175372 0.516487
1 0.1879 0.529015
0 0.310567 0.525994
0.10251 0.314977 0.530388
0.234714 0.319005 0.534417
0.403326 0.314443 0.529854
0.582483 0.307698 0.523125
0.749569 0.304387 0.519814
0.888426 0.308858 0.524285
0.994812 0.322866 0.538277
1 0.336477 0.551888
0 0.457862 0.524315
0.104128 0.465568 0.532021
0.237934 0.471199 0.537652
0.407568 0.467643 0.534096
0.587747 0.461936 0.528374
0.755978 0.45977 0.526223
0.895842 0.465263 0.531701
1 0.479393 0.545846
1 0.49221 0.558663
0 0.613306 0.525124
0.106004 0.622065 0.533883
0.241016 0.628901 0.540734
0.411368 0.626062 0.537896
0.591348 0.620157 0.531975
0.75845 0.616876 0.528695
0.896284 0.620325 0.532158
0.999969 0.631632 0.54345
1 0.640925 0.552743
0 0.767636 0.538415
0.118837 0.775937 0.546715
0.252567 0.781506 0.552285
0.420554 0.776318 0.547082
0.597299 0.767147 0.537926
0.760769 0.760235 0.531014
0.894316 0.759411 0.53019
0.993744 0.766445 0.537224
1 0.77145 0.542214
0.0184329 0.909728 0.564706
0.141665 0.914549 0.569543
0.271305 0.916014 0.571008
0.43505 0.906584 0.561578
0.607645 0.893278 0.548272
0.766751 0.882002 0.536995
0.896422 0.877287 0.53228
0.992126 0.880613 0.535607
1 0.882139 0.537118
0.0527657 1 0.599054
0.17174 1 0.599619
0.2972 1 0.596902
0.457084 1 0.583612
0.626078 0.997681 0.56672
0.781262 0.982483 0.551507
0.905531 0.972366 0.54139
0.994842 0.969284 0.538323
1 0.964462 0.533501
0 0.00030518 0.650095
0.0872663 0 0.64448
0.20734 0 0.636393
0.362951 0 0.61883
0.52903 0 0.598993
0.683604 0 0.5832
0.810941 0 0.57615
0.906615 0 0.579431
1 0 0.583322
0 0.0895247 0.654582
0.0920882 0.0842756 0.649317
0.213809 0.0778058 0.642863
0.372183 0.0630045 0.628061
0.541909 0.0468299 0.611887
0.70106 0.0355993 0.600656
0.833661 0.033814 0.598871
0.935225 0.0429847 0.608042
1 0.053315 0.618372
0 0.187564 0.65803
0.0994583 0.186221 0.656687
0.226154 0.184756 0.655222
0.390051 0.175463 0.64593
0.565957 0.165469 0.635935
0.731365 0.160494 0.630961
0.869413 0.164172 0.634623
0.974929 0.177295 0.647761
1 0.189822 0.660288
0 0.310918 0.65568
0.103685 0.316136 0.660914
0.236271 0.320562 0.665324
0.405035 0.316152 0.660914
0.584222 0.309438 0.6542
0.751293 0.306111 0.650889
0.890379 0.310811 0.655589
0.996841 0.324895 0.669673
1 0.338552 0.683314
0 0.459739 0.655543
0.106065 0.467491 0.663294
0.239902 0.473167 0.668971
0.409751 0.469825 0.665629
0.590051 0.464225 0.660029
0.758312 0.462104 0.657893
0.898116 0.467536 0.663325
1 0.481498 0.677287
1 0.494072 0.68986
0 0.615549 0.656718
0.108293 0.624353 0.665522
0.243244 0.631128 0.672297
0.413489 0.628199 0.669367
0.593378 0.622187 0.663355
0.760189 0.618616 0.659785
0.897658 0.621698 0.662867
1 0.632456 0.673625
1 0.641413 0.682582
0 0.769802 0.669917
0.120684 0.777783 0.677913
0.253941 0.782864 0.682994
0.421775 0.777523 0.677638
0.598047 0.76791 0.668025
0.761074 0.760555 0.66067
0.894194 0.759274 0.659403
0.993194 0.765881 0.66601
1 0.770474 0.670588
0.0193637 0.910643 0.694987
0.142275 0.915175 0.699504
0.271321 0.916045 0.700374
0.434745 0.906294 0.690623
0.606912 0.892546 0.67689
0.765637 0.880888 0.665232
0.894987 0.875868 0.660197
0.990387 0.878874 0.663203
1 0.879576 0.663905
0.0523384 1 0.727962
0.170855 1 0.728084
0.295949 1 0.725002
0.455543 1 0.711421
0.624247 0.995834 0.694209
0.778317 0.979538 0.677913
0.902037 0.968872 0.667247
0.990875 0.965316 0.663691
1 0.960311 0.658686
0 0 0.764096
0.0854047 0 0.758358
0.205493 0 0.750271
0.361227 0 0.73283
0.527504 0 0.713207
0.682429 0 0.697749
0.810224 0 0.691157
0.906386 0 0.694926
1 0 0.699382
0 0.0878614 0.768643
0.0906844 0.0828565 0.763638
0.212772 0.0767834 0.757549
0.371633 0.0624552 0.743236
0.541802 0.0467231 0.727504
0.701686 0.0362249 0.717006
0.834974 0.0351263 0.715908
0.937194 0.0449683 0.72575
1 0.0558022 0.736568
0 0.186969 0.773159
0.0996414 0.186404 0.772595
0.22678 0.185367 0.771557
0.391546 0.176974 0.763149
0.56817 0.167681 0.753872
0.733974 0.163104 0.749294
0.872251 0.166995 0.753185
0.977859 0.180224 0.766415
1 0.192721 0.778897
0 0.312642 0.773144
0.105852 0.318303 0.778805
0.238773 0.323049 0.783551
0.407782 0.318898 0.779385
0.587076 0.312291 0.772778
0.754162 0.30898 0.769482
0.893446 0.313878 0.77438
1 0.328161 0.788647
1 0.341863 0.802365
0 0.462669 0.774182
0.10898 0.470405 0.781933
0.242954 0.476219 0.787732
0.412985 0.47306 0.784588
0.593362 0.467552 0.77908
0.761624 0.465415 0.776928
0.90132 0.470741 0.782254
1 0.48452 0.796033
1 0.496818 0.808331
0 0.618555 0.775448
0.111391 0.627451 0.784344
0.246357 0.634241 0.79115
0.41648 0.631174 0.788083
0.596033 0.624842 0.781735
0.762539 0.620966 0.777859
0.89987 0.623911 0.780804
1 0.634211 0.791104
1 0.64271 0.799619
0 0.772885 0.788724
0.123507 0.780606 0.79646
0.256413 0.785351 0.80119
0.42356 0.779309 0.795163
0.599664 0.769528 0.785367
0.761975 0.76144 0.777295
0.894896 0.759976 0.77583
0.993454 0.766155 0.781994
1 0.770352 0.786191
0.0212406 0.91252 0.812589
0.143709 0.916609 0.816663
0.272328 0.917037 0.817105
0.435309 0.906844 0.806912
0.607004 0.892653 0.792706
0.765377 0.880629 0.780697
0.894438 0.875303 0.775372
0.989532 0.878019 0.778088
1 0.877623 0.777691
0.0527199 1 0.844068
0.17084 1 0.843793
0.295583 1 0.84036
0.454856 1 0.826459
0.623056 0.994659 0.808759
0.776257 0.977462 0.791577
0.899214 0.966049 0.780148
0.987808 0.962249 0.776364
1 0.957137 0.771252
0 0 0.861265
0.0848859 0 0.855268
0.205005 0 0.847196
0.360876 0 0.829908
0.527413 0 0.810529
0.682704 0 0.795438
0.810987 0 0.789334
0.907469 0 0.793439
1 0 0.798733
0 0.087602 0.865797
0.0907149 0.082887 0.861082
0.213214 0.0772259 0.855421
0.372457 0.0632792 0.841474
0.543282 0.0482032 0.826398
0.703609 0.0381476 0.816342
0.837827 0.0379797 0.816175
0.940719 0.0484932 0.826688
1 0.0597238 0.837919
0 0.188113 0.871717
0.101366 0.188128 0.871733
0.22916 0.187747 0.871351
0.394415 0.179828 0.863432
0.571588 0.171099 0.854704
0.737713 0.166842 0.850446
0.876173 0.170916 0.85452
0.981842 0.184192 0.867796
1 0.196719 0.880323
0 0.316014 0.87393
0.109682 0.322133 0.880049
0.242878 0.327153 0.885069
0.412024 0.323125 0.881041
0.591318 0.316518 0.874434
0.758526 0.313359 0.871275
0.897993 0.318425 0.876341
1 0.332799 0.890715
1 0.346487 0.904402
0 0.466651 0.875593
0.112932 0.474357 0.883299
0.247135 0.4804 0.889342
0.417304 0.477378 0.88632
0.597742 0.471931 0.880873
0.765957 0.469749 0.878691
0.905531 0.474952 0.883894
1 0.488502 0.897444
1 0.500603 0.909545
0 0.623163 0.877485
0.11603 0.63209 0.886397
0.250935 0.638819 0.893126
0.42089 0.635584 0.889906
0.600198 0.629007 0.883314
0.766354 0.624781 0.879103
0.902983 0.627024 0.881346
1 0.637156 0.891463
1 0.64506 0.899382
0.00143435 0.776944 0.890211
0.12752 0.784619 0.897887
0.260075 0.788998 0.902266
0.426764 0.782528 0.895796
0.602441 0.77229 0.885557
0.764309 0.763775 0.877043
0.896773 0.761868 0.875135
0.994888 0.76759 0.880858
1 0.77142 0.884688
0.0242924 0.915572 0.913054
0.146059 0.918944 0.916426
0.274479 0.919188 0.916671
0.437034 0.908568 0.90605
0.608331 0.893965 0.891447
0.766339 0.88159 0.879072
0.895079 0.875959 0.873442
0.989715 0.878202 0.875685
1 0.87689 0.874372
0.0542763 1 0.943038
0.172015 1 0.942382
0.296452 1 0.938643
0.455421 1 0.924437
0.622751 0.994339 0.905867
0.775326 0.976547 0.888075
0.897612 0.964446 0.875959
0.985977 0.960418 0.871946
1 0.954711 0.866239
